!!!COM:	Du Fay, Guillaume
!!!CDT:	~1397/08/05/-1474/11/27
!!!OPR:	Missa L'homme arm&eacute;
!!!ONM:	3
!!!OTL:	Credo
!!!AGN:	Mass; Credo
!!!SCT:	Duf1004c
!!!SCA:	Duf1004c
!!!voices:	4
!!!voices-OPR:	4
!!midi-transpose: -2
**kern	**text	**kern	**text	**kern	**text	**kern	**text
*staff4	*staff4	*staff3	*staff3	*staff2	*staff2	*staff1	*staff1
*Ivox	*	*Ivox	*	*Ivox	*	*Ivox	*
*I"Tenor2	*	*I"Tenor1	*	*I"Contratenor	*	*I"Cantus	*
*I'T2	*	*I'T1	*	*I'Ct	*	*I'Cn	*
*>[A,B]	*>[A,B]	*>[A,B]	*>[A,B]	*>[A,B]	*>[A,B]	*>[A,B]	*>[A,B]
*>A	*>A	*>A	*>A	*>A	*>A	*>A	*>A
*clefF4	*	*clefGv2	*	*clefGv2	*	*clefG2	*
*k[b-]	*	*k[b-]	*	*k[b-]	*	*k[]	*
*M3/1	*	*M3/1	*	*M3/1	*	*M3/1	*
*met(O)	*	*met(O)	*	*met(O)	*	*met(O)	*
*MM320	*MM320	*MM320	*MM320	*MM320	*MM320	*MM320	*MM320
!!section: Patrem omnipotentem
!!!OMD: Patrem omnipotentem
=1-	=1-	=1-	=1-	=1-	=1-	=1-	=1-
0.r	.	0.r	.	0G	Pa-	1.g	Pa-
.	.	.	.	.	.	2a/	.
.	.	.	.	1G	-trem	1b	-trem
=2	=2	=2	=2	=2	=2	=2	=2
0.r	.	0.r	.	1A	om-	1cc	om-
.	.	.	.	0G	-ni-	2b\	-ni-
.	.	.	.	.	.	1dd	.
.	.	.	.	.	.	2cc\	.
=3	=3	=3	=3	=3	=3	=3	=3
0.r	.	0.r	.	1G	-po-	2b\	.
.	.	.	.	.	.	2g/	.
.	.	.	.	1.F	-ten-	1a	.
.	.	.	.	.	.	1a	-po-
.	.	.	.	2E/	.	.	.
=4	=4	=4	=4	=4	=4	=4	=4
0.r	.	0.r	.	0G	.	1.b	-ten-
.	.	.	.	.	.	2g/	.
.	.	.	.	1G	-tem,	1g	-tem,
=5	=5	=5	=5	=5	=5	=5	=5
0.r	.	0.r	.	1.c	fac-	1r	.
.	.	.	.	.	.	1cc	fac-
.	.	.	.	2B-\	.	.	.
.	.	.	.	1A	.	1cc	-to-
=6	=6	=6	=6	=6	=6	=6	=6
0.r	.	0.r	.	0G	-to-	1b	.
.	.	.	.	.	.	2g/	.
.	.	.	.	.	.	2dd\	.
.	.	.	.	1G	-rem	2cc\	.
.	.	.	.	.	.	[2b\	.
=7	=7	=7	=7	=7	=7	=7	=7
0.r	.	0.r	.	1d	ce-	4b\]	.
.	.	.	.	.	.	4a/	.
.	.	.	.	.	.	2.a/	.
.	.	.	.	1c	.	.	.
.	.	.	.	.	.	4g/	.
.	.	.	.	.	.	2e/	.
.	.	.	.	1d	.	2f/	-rem
.	.	.	.	.	.	2d/	.
=8	=8	=8	=8	=8	=8	=8	=8
0.r	.	0.r	.	2e\	.	2r	.
.	.	.	.	2f\	.	2dd\	-ce-
.	.	.	.	2e\	.	4cc\	.
.	.	.	.	.	.	2ee\	.
.	.	.	.	1g	.	.	.
.	.	.	.	.	.	4dd\	.
.	.	.	.	.	.	2b\	.
.	.	.	.	2f\	.	2a/	.
=9	=9	=9	=9	=9	=9	=9	=9
0.r	.	0.r	.	1e	.	2r	.
.	.	.	.	.	.	2g/	.
.	.	.	.	1d	.	2f/	.
.	.	.	.	.	.	2.a/	.
.	.	.	.	1a	.	.	.
.	.	.	.	.	.	4g/	.
.	.	.	.	.	.	2f/	.
=10	=10	=10	=10	=10	=10	=10	=10
0.r	.	0.r	.	2g\	.	1e	.
.	.	.	.	2e\	.	.	.
.	.	.	.	1f	.	2r	.
.	.	.	.	.	.	2d/	.
.	.	.	.	1e	.	4e/	.
.	.	.	.	.	.	2g/	.
.	.	.	.	.	.	4f/	.
=11	=11	=11	=11	=11	=11	=11	=11
0.r	.	0.r	.	2f\	.	2d/	.
.	.	.	.	1d	.	2f/	.
.	.	.	.	.	.	1e	-li
.	.	.	.	2c#i\	.	.	.
.	.	.	.	1d	-li	2r	.
.	.	.	.	.	.	[2f/	et
=12	=12	=12	=12	=12	=12	=12	=12
0.r	.	0.r	.	2r	.	4f/]	.
.	.	.	.	.	.	4d/	.
.	.	.	.	2A/	et	2e/	.
.	.	.	.	2B-\	.	2d/	.
.	.	.	.	1A	ter-	2c/	.
.	.	.	.	.	.	1f	ter-
.	.	.	.	2d\	.	.	.
=13	=13	=13	=13	=13	=13	=13	=13
0.r	.	0.r	.	2c\	.	2e/	.
.	.	.	.	1d	.	2d/	.
.	.	.	.	.	.	2.a/	.
.	.	.	.	2f\	.	.	.
.	.	.	.	.	.	4b\	.
.	.	.	.	2e\	.	2cc\	.
.	.	.	.	2f\	.	2dd\	.
=14	=14	=14	=14	=14	=14	=14	=14
0.r	.	0.r	.	2g\	.	2ee\	.
.	.	.	.	1a	.	2ee\	.
.	.	.	.	.	.	1a	.
.	.	.	.	1d	.	.	.
.	.	.	.	.	.	2b\	.
.	.	.	.	2e\	.	2cc\	.
=15	=15	=15	=15	=15	=15	=15	=15
0.r	.	0.r	.	2f\	.	2.dd\	.
.	.	.	.	1d	.	.	.
.	.	.	.	.	.	4cc\	.
.	.	.	.	.	.	4b\	.
.	.	.	.	.	.	4a/	.
.	.	.	.	2c\	.	1a	.
.	.	.	.	1B-	.	.	.
.	.	.	.	.	.	2g/	.
=16	=16	=16	=16	=16	=16	=16	=16
0.r	.	0.r	.	0.A	-re,	1a	-re,
.	.	.	.	.	.	1r	.
.	.	.	.	.	.	1r	.
=17	=17	=17	=17	=17	=17	=17	=17
0.r	.	0.r	.	0.r	.	1a	vi-
.	.	.	.	.	.	2g/	-si-
.	.	.	.	.	.	1f	-bi-
.	.	.	.	.	.	2e/	-li-
=18	=18	=18	=18	=18	=18	=18	=18
0.r	.	0.r	.	1a	vi-	2d/	-um
.	.	.	.	.	.	2f/	.
.	.	.	.	2g\	-si-	2e/	.
.	.	.	.	1f	-bi-	2d/	.
.	.	.	.	.	.	1c	.
.	.	.	.	2e\	-li-	.	.
=19	=19	=19	=19	=19	=19	=19	=19
0.r	.	0.r	.	2d\	-um	2r	.
.	.	.	.	2f\	.	2d/	om-
.	.	.	.	2e\	.	2c/	.
.	.	.	.	2d\	.	2f/	.
.	.	.	.	1c	.	1e	.
=20	=20	=20	=20	=20	=20	=20	=20
0.r	.	0.r	.	2r	.	1d	.
.	.	.	.	2d\	om-	.	.
.	.	.	.	2c\	.	1a	.
.	.	.	.	2f\	.	.	.
.	.	.	.	1e	.	1g	.
=21	=21	=21	=21	=21	=21	=21	=21
0.r	.	0.r	.	1.d	.	2.f#/	.
.	.	.	.	.	.	4g/	.
.	.	.	.	.	.	2a/	.
.	.	.	.	1.g	.	2b\	.
.	.	.	.	.	.	2g/	.
.	.	.	.	.	.	2b\	.
=22	=22	=22	=22	=22	=22	=22	=22
0.r	.	0.r	.	1f#i	-ni-	2.a/	-ni-
.	.	.	.	.	.	4g/	.
.	.	.	.	1g	-um,	1g	-um,
.	.	.	.	2.G/	et	2r	.
.	.	.	.	.	.	[2d/	et
.	.	.	.	4F/	.	.	.
=23	=23	=23	=23	=23	=23	=23	=23
0.r	.	0.r	.	2.G/	.	4d/]	.
.	.	.	.	.	.	4c/	.
.	.	.	.	.	.	2.d/	.
.	.	.	.	4A/	.	.	.
.	.	.	.	4B-\	.	.	.
.	.	.	.	4c\	.	4e/	.
.	.	.	.	2.d\	.	4f/	.
.	.	.	.	.	.	4g/	.
.	.	.	.	.	.	2a/	.
.	.	.	.	4c\	.	.	.
.	.	.	.	2d\	in-	2b\	in-
=24	=24	=24	=24	=24	=24	=24	=24
0.r	.	0.r	.	2e\	-vi-	2cc\	-vi-
.	.	.	.	2f\	-si-	1a	-si-
.	.	.	.	1d	-bi-	.	.
.	.	.	.	.	.	1dd	-bi-
.	.	.	.	1g	.	.	.
.	.	.	.	.	.	2b\	.
=25	=25	=25	=25	=25	=25	=25	=25
0.r	.	0.r	.	2e\	.	2cc\	.
.	.	.	.	2f\	.	1dd	.
.	.	.	.	1g	.	.	.
.	.	.	.	.	.	1g	.
.	.	.	.	2.c\	.	.	.
.	.	.	.	.	.	2a/	.
.	.	.	.	4d\	.	.	.
=26	=26	=26	=26	=26	=26	=26	=26
0.r	.	0.r	.	2e\	.	2g/	.
.	.	.	.	2c\	.	2cc\	.
.	.	.	.	2G/	.	2b\	.
.	.	.	.	2B-\	.	1g	.
.	.	.	.	1A	-li-	.	.
.	.	.	.	.	.	2f/	-li-
=27	=27	=27	=27	=27	=27	=27	=27
0.r	.	0.r	.	2G/	-um,	2g/	-um,
.	.	.	.	2r	.	2d/	.
.	.	.	.	2B-\	et	2r	.
.	.	.	.	2A/	in-	2f/	in-
.	.	.	.	2.c\	-vi-	2e/	-vi-
.	.	.	.	.	.	[2g/	.
.	.	.	.	4B-\	.	.	.
=28	=28	=28	=28	=28	=28	=28	=28
0.r	.	0.r	.	2G/	-si-	4g/]	.
.	.	.	.	.	.	4f/	.
.	.	.	.	2.d\	-bi-	2d/	-si-
.	.	.	.	.	.	2.a/	-bi-
.	.	.	.	4c\	.	.	.
.	.	.	.	2d\	.	.	.
.	.	.	.	.	.	4g/	.
.	.	.	.	2f\	.	4a/	.
.	.	.	.	.	.	4b\	.
.	.	.	.	2e\	.	2cc\	.
=29	=29	=29	=29	=29	=29	=29	=29
0.r	.	0.r	.	2.g\	.	2b\	.
.	.	.	.	.	.	2.dd\	.
.	.	.	.	4f\	.	.	.
.	.	.	.	2d\	.	.	.
.	.	.	.	.	.	4cc\	.
.	.	.	.	2f\	.	2a/	.
.	.	.	.	2e\	.	2cc\	.
.	.	.	.	[2d\	.	4b\	.
.	.	.	.	.	.	4a/	.
=30	=30	=30	=30	=30	=30	=30	=30
0.r	.	0.r	.	2d\]	.	4g/	.
.	.	.	.	.	.	4f/	.
.	.	.	.	2c\	.	2e/	.
.	.	.	.	2d\	.	2d/	.
.	.	.	.	2B-\	.	1g	.
.	.	.	.	1A	-li-	.	.
.	.	.	.	.	.	2f#i/	-li-
=31	=31	=31	=31	=31	=31	=31	=31
0.r	.	[0.G	Et	0G	-um.	0.g	-um.
.	.	.	.	2B-\	Et	.	.
.	.	.	.	2c\	.	.	.
=32	=32	=32	=32	=32	=32	=32	=32
0.r	.	0.G]	.	1.d	in	0.r	.
.	.	.	.	1g	u-	.	.
.	.	.	.	2f\	.	.	.
=33	=33	=33	=33	=33	=33	=33	=33
0.G	Et	0.r	.	2e\	.	1g	Et
.	.	.	.	2d\	.	.	.
.	.	.	.	0d	-num	2b\	in
.	.	.	.	.	.	2cc\	.
.	.	.	.	.	.	[1dd	u-
=34	=34	=34	=34	=34	=34	=34	=34
0.B-	in	0.G	in	1r	.	1dd]	.
.	.	.	.	1r	.	0g	-num
.	.	.	.	1d	do-	.	.
=35	=35	=35	=35	=35	=35	=35	=35
1A	u-	[0.c	u-	1e	-mi-	0a	do-
0F	.	.	.	0f	-num	.	.
.	.	.	.	.	.	1a	-mi-
=36	=36	=36	=36	=36	=36	=36	=36
0.C	-num	0.c]	.	0e	Ie-	1g	-num
.	.	.	.	.	.	2a/	.
.	.	.	.	.	.	1cc	.
.	.	.	.	1g	-sum	.	.
.	.	.	.	.	.	2b\	.
=37	=37	=37	=37	=37	=37	=37	=37
1F	Ie-	1c	-num	1f	Chri-	1a	Ie-
0G	-sum...	0B-	do-	[0d	-stum	0g	-sum
=38	=38	=38	=38	=38	=38	=38	=38
0.D	.	0.A	-mi-	0d]	.	1.f#i	Chri-
.	.	.	.	.	.	2g/	.
.	.	.	.	1r	.	2f#i/	.
.	.	.	.	.	.	2e/	.
=39	=39	=39	=39	=39	=39	=39	=39
1r	.	[0.G	-num	1d	fi-	1g	-stum,
1r	.	.	.	2d\	-li-	1r	.
.	.	.	.	1g	-um	.	.
1d	fi-	.	.	.	.	1b-	fi-
.	.	.	.	2g\	de-	.	.
=40	=40	=40	=40	=40	=40	=40	=40
0.d	-li-	0.G]	.	0g	-i	2a/	.
.	.	.	.	.	.	1dd	.
.	.	.	.	.	.	2cc\	.
.	.	.	.	1g	u-	1b-	-li-
=41	=41	=41	=41	=41	=41	=41	=41
0c	-um	0.r	.	0e	-ni-	0a	-um
[1B-	de-	.	.	1d	-ge-	2b-i\	de-
.	.	.	.	.	.	2g/	.
=42	=42	=42	=42	=42	=42	=42	=42
1B-]	.	0.r	.	1d	-ni-	1g	.
0A	-i	.	.	1c	-tum,	2a/	.
.	.	.	.	.	.	2e/	.
.	.	.	.	2r	.	2.f#i/	.
.	.	.	.	2c\	u-	.	.
.	.	.	.	.	.	4e/	.
=43	=43	=43	=43	=43	=43	=43	=43
0G	u-	0d	fi-	2d\	.	1g	.
.	.	.	.	1B-	.	.	.
.	.	.	.	.	.	2a/	.
.	.	.	.	2G/	.	1b-	.
1G	-ni-	[1d	-li-	1B-	-ni-	.	.
.	.	.	.	.	.	2g/	.
=44	=44	=44	=44	=44	=44	=44	=44
1D	-ge-	1d]	.	2A/	-ge-	1f	-i
.	.	.	.	2B-\	.	.	.
0E	-ni-	0G	-um	1.c	.	1g	u-
.	.	.	.	.	.	1g	-ni-
.	.	.	.	4B-\	-ni-	.	.
.	.	.	.	4c\	.	.	.
=45	=45	=45	=45	=45	=45	=45	=45
[0.D	-tum.	0.r	.	1d	-tum.	1.a	-ge-
.	.	.	.	1r	.	.	.
.	.	.	.	.	.	2f/	-ni-
.	.	.	.	1r	.	1f	-tum.
=46	=46	=46	=46	=46	=46	=46	=46
0.D]	.	[0.d	Et	1.f	Et	1r	.
.	.	.	.	.	.	1r	.
.	.	.	.	2g\	.	.	.
.	.	.	.	1a	ex	1f	Et
=47	=47	=47	=47	=47	=47	=47	=47
0.r	.	0.d]	.	0a	pa-	1.f	ex
.	.	.	.	.	.	2g/	.
.	.	.	.	1f	.	1a	pa-
=48	=48	=48	=48	=48	=48	=48	=48
1G	Et	0.d	ex	1g	-tre	1b-i	-tre
1D	ex	.	.	2f\	na-	2a/	.
.	.	.	.	2a\	.	1dd	na-
[1G	pa-	.	.	2.g\	.	.	.
.	.	.	.	.	.	2cc\	.
.	.	.	.	4f\	.	.	.
=49	=49	=49	=49	=49	=49	=49	=49
1G]	.	1d	pa-	2d\	.	1b-i	.
.	.	.	.	2g\	.	.	.
1A	-tre	0c	-tre	2e\	.	1cc	.
.	.	.	.	2.f\	.	.	.
1F	.	.	.	.	.	1a	.
.	.	.	.	4g\	.	.	.
.	.	.	.	2a\	.	.	.
=50	=50	=50	=50	=50	=50	=50	=50
1G	na-	1B-	na-	2d\	.	1g	-tum
.	.	.	.	2g\	.	.	.
0D	-tum	0A	.	2a\	.	1r	.
.	.	.	.	1f#i	.	.	.
.	.	.	.	.	.	1a	an-
.	.	.	.	2e\	.	.	.
=51	=51	=51	=51	=51	=51	=51	=51
*	*	*	*	*	*	*^	*
1r	.	0.G	-tum	0.g	-tum	0d	0b	-te
1r	.	.	.	.	.	.	.	.
1G	an-	.	.	.	.	1d	1b	om-
*	*	*	*	*	*	*v	*v	*
=52	=52	=52	=52	=52	=52	=52	=52
[0.G	-te	0d	an-	0.r	.	0.g	.
.	.	1d	-te	.	.	.	.
=53	=53	=53	=53	=53	=53	=53	=53
0.G]	.	1d	om-	0.r	.	2b-\	-ni-
.	.	.	.	.	.	2cc\	.
.	.	2B-\	-ni-	.	.	1dd	-a
.	.	2c\	.	.	.	.	.
.	.	1d	-a	.	.	1g	.
=54	=54	=54	=54	=54	=54	=54	=54
1.B-	om-	0.G	.	0g	an-	1r	.
.	.	.	.	.	.	1.dd	se-
2c\	.	.	.	.	.	.	.
1d	-ni-	.	.	1g	-te	.	.
.	.	.	.	.	.	2cc\	.
=55	=55	=55	=55	=55	=55	=55	=55
1d	-a	0.r	.	1f	om-	2b-\	.
.	.	.	.	.	.	2a/	.
2c\	.	.	.	2e\	.	1a	.
2A\	.	.	.	2c\	.	.	.
1B-	.	.	.	1d	-ni-	2f/	.
.	.	.	.	.	.	2g/	.
=56	=56	=56	=56	=56	=56	=56	=56
1A	se-	0.r	.	1.c	-a	2a/	.
.	.	.	.	.	.	2f/	.
0G	.	.	.	.	.	2e/	.
.	.	.	.	1.B-	.	2.g/	.
.	.	.	.	.	.	4d/	.
.	.	.	.	.	.	2e/	.
=57	=57	=57	=57	=57	=57	=57	=57
1F	.	0.r	.	1A	se-	2f/	.
.	.	.	.	.	.	2d/	.
2.G\	.	.	.	1B-	.	4e-i/	.
.	.	.	.	.	.	4d/	.
.	.	.	.	.	.	4c/	.
4D\	.	.	.	.	.	4B-i/	.
1E-i	-cu-	.	.	1G	-cu-	2.c/	-cu-
.	.	.	.	.	.	4B-i/	.
=58	=58	=58	=58	=58	=58	=58	=58
1D	-la.	0.r	.	1A	-la.	1d	-la.
1G	.	.	.	1B-	.	2r	.
.	.	.	.	.	.	2g/	De-
1F	.	.	.	1A	.	2a/	.
.	.	.	.	.	.	2cc\	.
=59	=59	=59	=59	=59	=59	=59	=59
0.G	De-	[0.g	de	2G/	De-	2.b\	.
.	.	.	.	1d	.	.	.
.	.	.	.	.	.	4g/	.
.	.	.	.	.	.	2b\	.
.	.	.	.	2c\	.	2cc\	.
.	.	.	.	2.Bni\	.	1dd	.
.	.	.	.	4A/	.	.	.
=60	=60	=60	=60	=60	=60	=60	=60
0.C	-um	0.g]	.	0c	-um	0ee	-um
.	.	.	.	1e	.	1cc	de
=61	=61	=61	=61	=61	=61	=61	=61
0.D	de	0.f	de-	1r	.	2a/	de
.	.	.	.	.	.	1dd	.
.	.	.	.	0d	de	.	.
.	.	.	.	.	.	2cc\	.
.	.	.	.	.	.	2a/	.
.	.	.	.	.	.	2b\	.
=62	=62	=62	=62	=62	=62	=62	=62
0.C	.	0.g	.	0.e	de-	1.cc	de-
.	.	.	.	.	.	2dd\	.
.	.	.	.	.	.	1ee	.
=63	=63	=63	=63	=63	=63	=63	=63
1r	.	0.d	-o,	0f	.	2dd\	.
.	.	.	.	.	.	2cc\	.
1r	.	.	.	.	.	1a	.
[1G	de-	.	.	1g	.	2g/	.
.	.	.	.	.	.	[2dd\	.
=64	=64	=64	=64	=64	=64	=64	=64
2G\]	.	0.r	.	0d	.	4dd\]	.
.	.	.	.	.	.	4cc\	.
2F\	.	.	.	.	.	2a/	.
2G\	.	.	.	.	.	2b\	.
2B-\	.	.	.	.	.	1g	.
1A	.	.	.	1c	.	.	.
.	.	.	.	.	.	2f#i/	.
=65	=65	=65	=65	=65	=65	=65	=65
0.G	-o,	0g	lu-	0.d	-o,	1g	-o,
.	.	.	.	.	.	0b-	lu-
.	.	1g	-men	.	.	.	.
=66	=66	=66	=66	=66	=66	=66	=66
0.d	lu-	0.f	de	0.r	.	0a	-men
.	.	.	.	.	.	1a	de
=67	=67	=67	=67	=67	=67	=67	=67
0.G	-men	1g	lu-	0d	lu-	1b-i	lu-
.	.	2d\	-mi-	.	.	0g	-mi-
.	.	2.g\	-ne,	.	.	.	.
.	.	.	.	[1B-	.	.	.
.	.	4f\	.	.	.	.	.
.	.	2e\	.	.	.	.	.
=68	=68	=68	=68	=68	=68	=68	=68
1r	.	0.d	.	1B-]	.	1dd	-ne,
1r	.	.	.	1G	-men	1r	.
1G	de	.	.	2B-\	de	[1dd	de-
.	.	.	.	2c\	.	.	.
=69	=69	=69	=69	=69	=69	=69	=69
2D\	lu-	1r	.	0d	lu-	1dd]	.
1G	.	.	.	.	.	.	.
.	.	0g	de-	.	.	1b	.
2F\	.	.	.	.	.	.	.
1E	-mi-	.	.	1e	-mi-	1cc	.
=70	=70	=70	=70	=70	=70	=70	=70
1D	-ne,	0a	.	0f	-ne,	1dd	.
1F	de-	.	.	.	.	2cc\	.
.	.	.	.	.	.	2a/	.
1G	.	1g	.	[1d	de-	1b	.
=71	=71	=71	=71	=71	=71	=71	=71
1D	.	1f	.	1d]	.	1a	.
1E	.	0e	.	1Bni	.	0g	.
1C	.	.	.	1c	.	.	.
=72	=72	=72	=72	=72	=72	=72	=72
0.D	-um	0.d	-um	0.A	-um	0.f	-um
=73	=73	=73	=73	=73	=73	=73	=73
0.r	.	0.r	.	1B-	ve-	2r	.
.	.	.	.	.	.	2g/	ve-
.	.	.	.	2A/	.	2f/	.
.	.	.	.	2B-\	.	2g/	.
.	.	.	.	2c\	.	1a	.
.	.	.	.	[2d\	.	.	.
=74	=74	=74	=74	=74	=74	=74	=74
0.r	.	0.r	.	2d\]	.	2b-\	.
.	.	.	.	2c\	.	1a	.
.	.	.	.	2d\	.	.	.
.	.	.	.	2f\	.	1dd	.
.	.	.	.	1e	.	.	.
.	.	.	.	.	.	2cc\	.
=75	=75	=75	=75	=75	=75	=75	=75
0.r	.	0.r	.	2d\	.	2.dd\	.
.	.	.	.	2.g\	.	.	.
.	.	.	.	.	.	4cc\	.
.	.	.	.	.	.	2b-i\	.
.	.	.	.	4f\	.	.	.
.	.	.	.	2f\	.	1a	.
.	.	.	.	1d	.	.	.
.	.	.	.	.	.	2b-i\	.
=76	=76	=76	=76	=76	=76	=76	=76
0.r	.	0.r	.	2c\	.	2.a/	.
.	.	.	.	2.d\	.	.	.
.	.	.	.	.	.	4g/	.
.	.	.	.	.	.	2f/	.
.	.	.	.	4B-\	.	.	.
.	.	.	.	2c\	.	2e/	.
.	.	.	.	2d\	-rum	2f/	-rum
.	.	.	.	2r	.	2d/	.
=77	=77	=77	=77	=77	=77	=77	=77
0.r	.	0.r	.	2G/	de	2r	.
.	.	.	.	2F/	.	2a/	de
.	.	.	.	2G/	.	2.b-i\	.
.	.	.	.	2B-\	.	.	.
.	.	.	.	.	.	8a/L	.
.	.	.	.	.	.	8g/J	.
.	.	.	.	2.A/	de-	2f/	.
.	.	.	.	.	.	[2cc\	de-
.	.	.	.	4B-\	.	.	.
=78	=78	=78	=78	=78	=78	=78	=78
0.r	.	0.r	.	2c\	.	4cc\]	.
.	.	.	.	.	.	4b-i\	.
.	.	.	.	2d\	.	4a/	.
.	.	.	.	.	.	4g/	.
.	.	.	.	2B-\	.	2g/	.
.	.	.	.	2G/	.	2e/	.
.	.	.	.	1A	-o	2f#/	-o
.	.	.	.	.	.	2r	.
=79	=79	=79	=79	=79	=79	=79	=79
0.r	.	0.r	.	2G/	ve-	2g/	ve-
.	.	.	.	2d\	.	4a/	.
.	.	.	.	.	.	2b-i\	.
.	.	.	.	2e\	.	.	.
.	.	.	.	.	.	4cc\	.
.	.	.	.	2f\	.	2a/	.
.	.	.	.	2.g\	.	2g/	.
.	.	.	.	.	.	[2dd\	.
.	.	.	.	4f\	.	.	.
=80	=80	=80	=80	=80	=80	=80	=80
0.r	.	0.r	.	2d\	.	4dd\]	.
.	.	.	.	.	.	4cc\	.
.	.	.	.	2c\	.	2a/	.
.	.	.	.	2d\	.	4b-i\	.
.	.	.	.	.	.	4a/	.
.	.	.	.	2G/	.	4b-i\	.
.	.	.	.	.	.	2g/	.
.	.	.	.	1A	.	.	.
.	.	.	.	.	.	4f#i/	.
.	.	.	.	.	.	4f#i/	.
.	.	.	.	.	.	4e/	.
=81	=81	=81	=81	=81	=81	=81	=81
1d	de	[0.G	ve-	1G	-ro.	0.g	-ro.
2B-\	de-	.	.	1r	.	.	.
2c\	.	.	.	.	.	.	.
1d	-o	.	.	1r	.	.	.
=82	=82	=82	=82	=82	=82	=82	=82
2G\	ve-	0G]	.	0.r	.	0.r	.
1d	.	.	.	.	.	.	.
2B-\	.	.	.	.	.	.	.
1A	-ro.	1F	-ro.	.	.	.	.
=83	=83	=83	=83	=83	=83	=83	=83
*M3/1	*	*	*	*	*	*	*
*met(C.)	*	*	*	*	*	*	*
1.G	Ge-	[0.G	Ge-	2.B-\	Ge-	3%4dd/V	Ge-
.	.	.	.	4c\	.	.	.
.	.	.	.	2d\	.	.	.
.	.	.	.	.	.	3%2dd/Z	-ni-
1.d	-ni-	.	.	2G/	.	.	.
!	!	!	!	!	!	!LO:N:vis=0	!
!	!	!	!	!	!	!LO:TX:Z=29:t= ____     __	!
!	!	!	!	!	!	!LO:TX:Z=8:i:t=|        3 	!
.	.	.	.	2.g\	-ni-	[y3%2.b-	-tum
.	.	.	.	4f\	.	.	.
=84	=84	=84	=84	=84	=84	=84	=84
*	*	*	*	*M4/1	*	*	*
*	*	*	*	*met(Cr)	*	*	*
*	*	*	*	*rscale:4/3	*	*	*
1.d	-tum,	0.G]	.	2%3g	-tum,	3b-\]yy	.
!	!	!	!	!	!	!LO:TX:X=-75:Z=29:t= _______	!
!	!	!	!	!	!	!LO:TX:Z=8:t=  |	!
.	.	.	.	.	.	3%2g	non
.	.	.	.	.	.	3%2.b-i/V	fac-
1.B-	non	.	.	4%3d	non	.	.
.	.	.	.	.	.	3cc\	.
.	.	.	.	4%3g	.	.	.
.	.	.	.	.	.	3%2dd/Z	.
=85	=85	=85	=85	=85	=85	=85	=85
1.A	fac-	[0.c	-ni-	2%3a	fac-	3%4ee/V	-tum
.	.	.	.	.	.	3%2cc/Z	con-
1.A	-tum	.	.	4%3e	.	.	.
!	!	!	!	!	!	!LO:N:vis=0	!
.	.	.	.	.	.	[y3%2.aV	-sub-
.	.	.	.	4%3f	.	.	.
=86	=86	=86	=86	=86	=86	=86	=86
1.c	con-	0.c]	.	4%3e	-tum,-	3a/]yy	.
.	.	.	.	.	.	3%2gZ	-stan-
.	.	.	.	8%3r	.	.	.
.	.	.	.	.	.	3%2.cc/V	-ti-
.	.	.	.	8%3g\	-con-	.	.
1.F	-sub-	.	.	8%3a\	.	.	.
.	.	.	.	4%3f	.	.	.
.	.	.	.	.	.	3b/	.
.	.	.	.	.	.	3%2a/Z	.
.	.	.	.	8%3e\	.	.	.
=87	=87	=87	=87	=87	=87	=87	=87
1.G	-stan-	0.B-	-tum	4%3.d	-sub-	3%4gV	-a-
.	.	.	.	4%3g	-stan-	.	.
.	.	.	.	.	.	3%2gZ	-lem
1.G	-ti-	.	.	.	.	.	.
.	.	.	.	8%3f\	.	.	.
.	.	.	.	.	.	3%2dV	.
.	.	.	.	4%3g	-ti-	.	.
!	!	!	!	!	!	!LO:N:vis=1	!
.	.	.	.	.	.	3r	.
=88	=88	=88	=88	=88	=88	=88	=88
1.c	-a-	0.A	non	4%3a	-a-	3ryy	.
.	.	.	.	.	.	3%2eeZ	pa-
.	.	.	.	4%3e	-lem	.	.
.	.	.	.	.	.	3%2cc/V	.
1.c	-lem	.	.	4%3.f#i	pa-	.	.
.	.	.	.	.	.	3%2a/	.
.	.	.	.	.	.	3%2cc/Z	.
.	.	.	.	16%3e\	.	.	.
.	.	.	.	16%3f#i\	.	.	.
=89	=89	=89	=89	=89	=89	=89	=89
1.d	pa-	[0.G	fac-	2%3g	.	3%2bV/	.
.	.	.	.	.	.	3%4ddZ/	.
1.d	-tri:	.	.	4%3g	-tri:	.	.
!	!	!	!	!	!	!LO:TX:X=-10:Z=29:t= _______    ________	!
!	!	!	!	!	!	!LO:TX:X=-10:i:Z=8:t=|             3               |	!
.	.	.	.	.	.	3%2.g	.
.	.	.	.	4%3d	.	.	.
=90	=90	=90	=90	=90	=90	=90	=90
1B-	per	0.G]	.	4%3r	.	3f/	.
.	.	.	.	.	.	3e/	.
.	.	.	.	.	.	3d/	.
.	.	.	.	4%3d	per	.	.
2G\	quem	.	.	.	.	3d/V	-tri:
.	.	.	.	.	.	3r	.
2.B-\	om-	.	.	4%3G	.	.	.
.	.	.	.	.	.	3%2g/	per
.	.	.	.	.	.	.	.
4c\	.	.	.	4%3g	quem	.	.
.	.	.	.	.	.	3%2b-Z	.
2d\	-ni-	.	.	.	.	.	.
=91	=91	=91	=91	=91	=91	=91	=91
1.D	-a	[0.d	.	8%3f\	om-	3%2a/V	quem
.	.	.	.	8%3g\	.	.	.
.	.	.	.	.	.	3%2.dd/	om-
.	.	.	.	4%3a	.	.	.
1D	fac-	.	.	4%3d	-ni-	.	.
.	.	.	.	.	.	3cc\Z	-ni-
.	.	.	.	.	.	3%2aV	-a
.	.	.	.	4%3A	-a	.	.
2D\	.	.	.	.	.	.	.
!	!	!	!	!	!	!LO:N:vis=1	!
.	.	.	.	.	.	[y3f/	fac-
=92	=92	=92	=92	=92	=92	=92	=92
2G\	.	0.d]	.	8%3B-/	fac-	3f/]yy	.
.	.	.	.	.	.	3%2gZ	.
.	.	.	.	8%3G/	.	.	.
1G	-ta	.	.	.	.	.	.
.	.	.	.	4%3B-	-ta	.	.
.	.	.	.	.	.	3d/V	.
.	.	.	.	.	.	3g/	.
1.D	sunt.	.	.	2%3A	sunt.	.	.
.	.	.	.	.	.	3a/	.
.	.	.	.	.	.	3%2f#i	-ta
.	.	.	.	.	.	3e/Z	.
*	*	*	*	*rscale:1	*	*	*
=93	=93	=93	=93	=93	=93	=93	=93
*M3/1	*	*	*	*M3/1	*	*	*
*met(O)	*	*	*	*met(O)	*	*	*
0d	Qui	0.G	-tum	1B-	Qui	0.g	sunt.
.	.	.	.	2G/	prop-	.	.
.	.	.	.	1B-	-ter	.	.
1d	prop-	.	.	.	.	.	.
.	.	.	.	2c\	.	.	.
=94	=94	=94	=94	=94	=94	=94	=94
1G	-ter	0.r	.	2d\	nos	0.r	.
.	.	.	.	2e\	.	.	.
2A\	nos	.	.	2f\	.	.	.
2B-\	.	.	.	2.g\	ho-	.	.
1G	.	.	.	.	.	.	.
.	.	.	.	4f\	.	.	.
.	.	.	.	2d\	.	.	.
=95	=95	=95	=95	=95	=95	=95	=95
2.A\	ho-	0.r	.	2c\	.	0.r	.
.	.	.	.	2f\	.	.	.
4F\	.	.	.	.	.	.	.
2G\	.	.	.	2e\	-mi-	.	.
2F\	.	.	.	1d	.	.	.
1E	-mi-	.	.	.	.	.	.
.	.	.	.	2c#i\	.	.	.
=96	=96	=96	=96	=96	=96	=96	=96
0.D	-nes,	0.r	.	0d	-nes,	2.f/	Qui
.	.	.	.	.	.	4g/	.
.	.	.	.	.	.	2a/	prop-
.	.	.	.	.	.	2b-i\	-ter
.	.	.	.	1f	qui	2a/	nos
.	.	.	.	.	.	[2dd\	ho-
=97	=97	=97	=97	=97	=97	=97	=97
0.r	.	0.r	.	1e	prop-	2dd\]	.
.	.	.	.	.	.	2cc\	.
.	.	.	.	0d	-ter	2.dd\	.
.	.	.	.	.	.	4cc\	.
.	.	.	.	.	.	4b-i\	.
.	.	.	.	.	.	4a/	.
.	.	.	.	.	.	[2a/	.
=98	=98	=98	=98	=98	=98	=98	=98
0.r	.	0.r	.	1c	nos	4a/]	.
.	.	.	.	.	.	4g/	.
.	.	.	.	.	.	2a/	.
.	.	.	.	2d\	ho-	2b-i\	.
.	.	.	.	2B-\	.	1g	.
.	.	.	.	1A	-mi-	.	.
.	.	.	.	.	.	2f#i/	-mi-
=99	=99	=99	=99	=99	=99	=99	=99
0.r	.	[0.d	et	0.G	-nes,	1g	-nes,
.	.	.	.	.	.	1r	.
.	.	.	.	.	.	1g	et
=100	=100	=100	=100	=100	=100	=100	=100
0D	et	0.d_	.	0.r	.	2f/	prop-
.	.	.	.	.	.	2g/	-ter
.	.	.	.	.	.	1a	no-
1G	prop-	.	.	.	.	1b-i	-stram
=101	=101	=101	=101	=101	=101	=101	=101
2F\	.	0.d_	.	0.r	.	2a/	sa-
2G\	.	.	.	.	.	2.dd\	-lu-
2D\	.	.	.	.	.	.	.
.	.	.	.	.	.	4cc\	.
1G	.	.	.	.	.	2b-i\	.
.	.	.	.	.	.	1a	.
2F#i\	.	.	.	.	.	.	.
=102	=102	=102	=102	=102	=102	=102	=102
0G	-ter,	0.d]	.	1r	.	0.g	-tem,
.	.	.	.	1r	.	.	.
1G	et	.	.	1g	et	.	.
=103	=103	=103	=103	=103	=103	=103	=103
1B-	prop-	1d	prop-	2.f\	prop-	1r	.
.	.	.	.	4g\	.	.	.
2A\	-ter	2c\	-ter	1a	-ter	1r	.
1d	no-	2B-\	.	.	.	.	.
.	.	1A	no-	2.f\	no-	1a	de-
2c\	.	.	.	.	.	.	.
.	.	.	.	4e\	.	.	.
=104	=104	=104	=104	=104	=104	=104	=104
1d	-stram	1G	-stram	1g	-stram	1b-i	-scen-
2c\	sa-	1A	.	1e	sa-	0cc	-dit
2B-\	.	.	.	.	.	.	.
1A	-lu-	1F	sa-	1a	.	.	.
=105	=105	=105	=105	=105	=105	=105	=105
1G	-tem,	1B-	-lu-	2.d\	-lu-	1dd	de
.	.	.	.	4c\	.	.	.
1r	.	2c\	.	2A/	-tem,	2cc\	.
.	.	1d	.	2G/	.	2b-i\	.
1F	de-	.	.	1r	.	1a	.
.	.	2A/	.	.	.	.	.
=106	=106	=106	=106	=106	=106	=106	=106
1G	-scen-	1B-	-tem,	1d	de-	1g	ce-
1A	.	1A	.	2c\	.	1e	.
.	.	.	.	2B-\	.	.	.
1D	-dit	1d	de-	1A	.	1f	.
=107	=107	=107	=107	=107	=107	=107	=107
1r	.	0d	-scen-	1G	-scen-	2g/	.
.	.	.	.	.	.	2b-i\	.
1D	de	.	.	0A	-dit	2a/	.
.	.	.	.	.	.	2.f/	.
1F	ce-	1c	-dit	.	.	.	.
.	.	.	.	.	.	4g/	.
.	.	.	.	.	.	2a/	.
=108	=108	=108	=108	=108	=108	=108	=108
1G	.	1B-	de	2r	.	1d	.
.	.	.	.	1.d	de	.	.
0D	.	0A	ce-	.	.	3g/V	.
.	.	.	.	.	.	3a/	.
.	.	.	.	.	.	3f#i/Z	.
.	.	.	.	1d	ce-	3g/V	.
.	.	.	.	.	.	3.f#i/	.
.	.	.	.	.	.	6e/Z	.
=109	=109	=109	=109	=109	=109	=109	=109
*^	*	*	*	*	*	*	*
0.Gl\	0.dl/	-lis.	0.Gl	-lis.	2.B-\	.	0.gl	-lis.
*v	*v	*	*	*	*	*	*	*
.	.	.	.	4c\	.	.	.
.	.	.	.	0dl	-lis.	.	.
!!LO:LB:i:g=z
=110||	=110||	=110||	=110||	=110||	=110||	=110||	=110||
*>B	*>B	*>B	*>B	*>B	*>B	*>B	*>B
*clefF4	*	*clefGv2	*	*clefGv2	*	*clefG2	*
*k[b-]	*	*k[b-]	*	*k[b-]	*	*k[]	*
*M2/1	*	*M2/1	*	*M2/1	*	*M2/1	*
*met(C)	*	*met(C)	*	*met(C)	*	*met(C)	*
*MM420	*MM420	*MM420	*MM420	*MM420	*MM420	*MM420	*MM420
!!section: Et incarnatus est
!!!OMD: Et incarnatus est
0r	.	0r	.	[0g	Et	[0g	Et
=111.	=111.	=111.	=111.	=111.	=111.	=111.	=111.
0r	.	0r	.	0g]	.	0g]	.
=112	=112	=112	=112	=112	=112	=112	=112
0r	.	0r	.	1f	in-	1a	in-
.	.	.	.	1g	.	1b	.
=113.	=113.	=113.	=113.	=113.	=113.	=113.	=113.
0r	.	0r	.	0a	-car-	0cc	-car-
=114	=114	=114	=114	=114	=114	=114	=114
0r	.	0r	.	0g	-na-	1.b	-na-
.	.	.	.	.	.	2g/	.
=115.	=115.	=115.	=115.	=115.	=115.	=115.	=115.
0r	.	0r	.	1f	.	1a	.
.	.	.	.	[1g	.	1b	.
=116	=116	=116	=116	=116	=116	=116	=116
0r	.	0r	.	1g]	.	1.g	.
.	.	.	.	1c	.	.	.
.	.	.	.	.	.	2e/	.
=117.	=117.	=117.	=117.	=117.	=117.	=117.	=117.
0r	.	0r	.	1d	.	1f	.
.	.	.	.	1c	.	1e	.
=118	=118	=118	=118	=118	=118	=118	=118
0r	.	0r	.	0f	.	0d	.
=119.	=119.	=119.	=119.	=119.	=119.	=119.	=119.
0r	.	0r	.	1e	.	0c	.
.	.	.	.	[1g	.	.	.
=120	=120	=120	=120	=120	=120	=120	=120
0r	.	0r	.	2g\]	.	1B	.
.	.	.	.	2f\	.	.	.
.	.	.	.	1e	.	1c	.
=121.	=121.	=121.	=121.	=121.	=121.	=121.	=121.
0r	.	0r	.	2d\	.	0d	.
.	.	.	.	1f	.	.	.
.	.	.	.	2g\	.	.	.
=122	=122	=122	=122	=122	=122	=122	=122
0r	.	0r	.	1e	.	1c	.
.	.	.	.	[1d	.	2d/	.
.	.	.	.	.	.	[2f/	.
=123.	=123.	=123.	=123.	=123.	=123.	=123.	=123.
0r	.	0r	.	2d\]	.	2f/]	.
.	.	.	.	2c\	.	2g/	.
.	.	.	.	[1c	.	1e	.
=124	=124	=124	=124	=124	=124	=124	=124
0r	.	0r	.	1c]	.	1.d	-tus
.	.	.	.	1Bni	-tus	.	.
.	.	.	.	.	.	2c/	.
=125.	=125.	=125.	=125.	=125.	=125.	=125.	=125.
0r	.	0r	.	[0c	est	0c	est
=126	=126	=126	=126	=126	=126	=126	=126
0r	.	0r	.	0c]	.	1r	.
.	.	.	.	.	.	1g	de
=127.	=127.	=127.	=127.	=127.	=127.	=127.	=127.
0r	.	0r	.	1r	.	1a	spi-
.	.	.	.	1G	de	1b	-ri-
=128	=128	=128	=128	=128	=128	=128	=128
0r	.	0r	.	1A	spi-	2.cc\	-tu
.	.	.	.	.	.	4b\	.
.	.	.	.	1B-	-ri-	1g	.
=129.	=129.	=129.	=129.	=129.	=129.	=129.	=129.
0r	.	0r	.	2.c\	-tu	1r	.
.	.	.	.	4B-\	.	.	.
.	.	.	.	1G	.	1dd	san-
=130	=130	=130	=130	=130	=130	=130	=130
0r	.	0r	.	1r	.	2b\	.
.	.	.	.	.	.	2g/	.
.	.	.	.	1d	san-	1a	.
=131.	=131.	=131.	=131.	=131.	=131.	=131.	=131.
0r	.	0r	.	2B-\	.	1g	.
.	.	.	.	2G/	.	.	.
.	.	.	.	1A	.	1cc	.
=132	=132	=132	=132	=132	=132	=132	=132
0r	.	0r	.	1G	.	1dd	.
.	.	.	.	1c	.	1ee	.
=133.	=133.	=133.	=133.	=133.	=133.	=133.	=133.
0r	.	0r	.	1d	.	2dd\	.
.	.	.	.	.	.	1b	.
.	.	.	.	1e	.	.	.
.	.	.	.	.	.	2g/	.
=134	=134	=134	=134	=134	=134	=134	=134
0r	.	0r	.	1f	.	1a	.
.	.	.	.	[1g	.	1b	.
=135.	=135.	=135.	=135.	=135.	=135.	=135.	=135.
0r	.	0r	.	1g]	.	0g	.
.	.	.	.	[1c	.	.	.
=136	=136	=136	=136	=136	=136	=136	=136
0r	.	0r	.	2c\]	.	1.cc	.
.	.	.	.	2B-\	.	.	.
.	.	.	.	2A/	.	.	.
.	.	.	.	2G/	.	2b\	.
=137.	=137.	=137.	=137.	=137.	=137.	=137.	=137.
0r	.	0r	.	1c	.	2a/	.
.	.	.	.	.	.	2g/	.
.	.	.	.	1e	.	1cc	.
=138	=138	=138	=138	=138	=138	=138	=138
0r	.	0r	.	2d\	.	1dd	.
.	.	.	.	1g	.	.	.
.	.	.	.	.	.	[1b	-cto
.	.	.	.	2f\	.	.	.
=139.	=139.	=139.	=139.	=139.	=139.	=139.	=139.
0r	.	0r	.	1e	-cto	2b\]	.
.	.	.	.	.	.	2a/	.
.	.	.	.	2r	.	1b	.
.	.	.	.	2G/	ex	.	.
=140	=140	=140	=140	=140	=140	=140	=140
0r	.	0r	.	2F/	Ma-	1r	.
.	.	.	.	1G	.	.	.
.	.	.	.	.	.	1g	ex
.	.	.	.	2A/	.	.	.
=141.	=141.	=141.	=141.	=141.	=141.	=141.	=141.
0r	.	0r	.	1B-	-ri-	2f/	Ma-
.	.	.	.	.	.	1g	.
.	.	.	.	1c	-a	.	.
.	.	.	.	.	.	2a/	.
=142	=142	=142	=142	=142	=142	=142	=142
0r	.	0r	.	1d	vir-	2.b\	-ri-
.	.	.	.	.	.	4a/	.
.	.	.	.	2c\	.	1cc	-a
.	.	.	.	[2f\	.	.	.
=143.	=143.	=143.	=143.	=143.	=143.	=143.	=143.
0r	.	0r	.	2f\]	.	2dd\	vir-
.	.	.	.	2g\	.	2ee\	.
.	.	.	.	2a\	.	2cc\	.
.	.	.	.	2f\	.	[2dd\	.
=144	=144	=144	=144	=144	=144	=144	=144
0r	.	0r	.	2g\	.	2dd\]	.
.	.	.	.	2r	.	2g/	.
.	.	.	.	2c\	.	2a/	.
.	.	.	.	2d\	.	2b\	.
=145.	=145.	=145.	=145.	=145.	=145.	=145.	=145.
0r	.	0r	.	2e\	.	1g	.
.	.	.	.	1c	.	.	.
.	.	.	.	.	.	2e/	.
.	.	.	.	2A/	.	2f/	.
=146	=146	=146	=146	=146	=146	=146	=146
0r	.	0r	.	2B-\	.	1g	.
.	.	.	.	1c	.	.	.
.	.	.	.	.	.	1a	.
.	.	.	.	[2d\	.	.	.
=147.	=147.	=147.	=147.	=147.	=147.	=147.	=147.
0r	.	0r	.	2d\]	.	2f/	.
.	.	.	.	2B-\	.	2d/	.
.	.	.	.	2G/	.	2r	.
.	.	.	.	2r	.	2b\	.
=148	=148	=148	=148	=148	=148	=148	=148
0r	.	0r	.	2e\	.	2cc\	.
.	.	.	.	2f\	.	1dd	.
.	.	.	.	1g	.	.	.
.	.	.	.	.	.	[2ee\	.
=149.	=149.	=149.	=149.	=149.	=149.	=149.	=149.
0r	.	0r	.	2c\	.	2ee\]	.
.	.	.	.	2e\	.	2cc\	.
.	.	.	.	2d\	.	1dd	.
.	.	.	.	2f\	.	.	.
=150	=150	=150	=150	=150	=150	=150	=150
0r	.	0r	.	2e\	.	2cc\	.
.	.	.	.	2c\	.	2a/	.
.	.	.	.	1d	.	2r	.
.	.	.	.	.	.	2d/	.
=151.	=151.	=151.	=151.	=151.	=151.	=151.	=151.
0r	.	0r	.	2G/	.	2e/	.
.	.	.	.	2A/	.	2f/	.
.	.	.	.	2G/	.	2g/	.
.	.	.	.	[2c\	.	2a/	.
=152	=152	=152	=152	=152	=152	=152	=152
0r	.	0r	.	2c\]	.	2g/	.
.	.	.	.	2e\	.	2cc\	.
.	.	.	.	2d\	.	2b\	.
.	.	.	.	[2g\	.	2ee\	.
=153.	=153.	=153.	=153.	=153.	=153.	=153.	=153.
0r	.	0r	.	4g\]	.	2dd\	.
.	.	.	.	4f\	.	.	.
.	.	.	.	2e\	.	1cc	.
.	.	.	.	1d	-gi-	.	.
.	.	.	.	.	.	2b\	-gi-
=154	=154	=154	=154	=154	=154	=154	=154
0r	.	0r	.	0c	-ne:	0cc	-ne:
=155.	=155.	=155.	=155.	=155.	=155.	=155.	=155.
3%4cV	et	0r	.	0r	.	1r	.
.	.	.	.	.	.	1cc	et
3B-\	.	.	.	.	.	.	.
3A\Z	.	.	.	.	.	.	.
=156	=156	=156	=156	=156	=156	=156	=156
[0G	ho-	0r	.	0d	et	1b	ho-
.	.	.	.	.	.	1g	-mo
=157.	=157.	=157.	=157.	=157.	=157.	=157.	=157.
0G]	.	0r	.	1B-	ho-	1.dd	fac-
.	.	.	.	1G	-mo	.	.
.	.	.	.	.	.	2cc\	.
=158	=158	=158	=158	=158	=158	=158	=158
0F	-mo	0r	.	0A	fac-	1a	.
.	.	.	.	.	.	1cc	-tus
=159.	=159.	=159.	=159.	=159.	=159.	=159.	=159.
0G	fa-	0r	.	1G	.	1b	est.
.	.	.	.	1B-	.	1g	.
=160	=160	=160	=160	=160	=160	=160	=160
1A	.	0r	.	1c	.	0r	.
1B-	.	.	.	[1d	.	.	.
=161.	=161.	=161.	=161.	=161.	=161.	=161.	=161.
0G	.	0r	.	1d]	.	0r	.
.	.	.	.	1e	.	.	.
=162	=162	=162	=162	=162	=162	=162	=162
1A	.	0r	.	1f	.	0r	.
1G	.	.	.	[1g	.	.	.
=163.	=163.	=163.	=163.	=163.	=163.	=163.	=163.
1B-	.	0r	.	2g\]	.	0r	.
.	.	.	.	2f\	.	.	.
1c	.	.	.	1e	.	.	.
=164	=164	=164	=164	=164	=164	=164	=164
0d	.	0r	.	1d	.	0r	.
.	.	.	.	1f	.	.	.
=165.	=165.	=165.	=165.	=165.	=165.	=165.	=165.
0A	.	0r	.	1e	.	0r	.
.	.	.	.	[1a	.	.	.
=166	=166	=166	=166	=166	=166	=166	=166
0B-	-ctus	0r	.	1a]	.	0r	.
.	.	.	.	1g	-ctus	.	.
=167.	=167.	=167.	=167.	=167.	=167.	=167.	=167.
0A	est,	0r	.	0a	est,	0r	.
=168	=168	=168	=168	=168	=168	=168	=168
[0d	et	0r	.	1r	.	0r	.
.	.	.	.	1f	et	.	.
=169.	=169.	=169.	=169.	=169.	=169.	=169.	=169.
0d]	.	0r	.	2d\	ho-	0r	.
.	.	.	.	2f\	.	.	.
.	.	.	.	2g\	.	.	.
.	.	.	.	[2a\	.	.	.
=170	=170	=170	=170	=170	=170	=170	=170
0c	ho-	0r	.	2a\]	.	0r	.
.	.	.	.	2g\	.	.	.
.	.	.	.	1e	.	.	.
=171.	=171.	=171.	=171.	=171.	=171.	=171.	=171.
0d	.	0r	.	1f	.	0r	.
.	.	.	.	2d\	.	.	.
.	.	.	.	2f\	.	.	.
=172	=172	=172	=172	=172	=172	=172	=172
0G	.	0r	.	2e\	.	0r	.
.	.	.	.	2.d\	.	.	.
.	.	.	.	4c\	.	.	.
.	.	.	.	2B-\	.	.	.
=173.	=173.	=173.	=173.	=173.	=173.	=173.	=173.
1.A	.	0r	.	1A	.	0r	.
.	.	.	.	1f	.	.	.
2F\	.	.	.	.	.	.	.
=174	=174	=174	=174	=174	=174	=174	=174
1G	.	0r	.	2e\	.	0r	.
.	.	.	.	2d\	.	.	.
1D	.	.	.	[1d	.	.	.
=175.	=175.	=175.	=175.	=175.	=175.	=175.	=175.
0E	.	0r	.	1d]	.	0r	.
.	.	.	.	1c#i	.	.	.
=176	=176	=176	=176	=176	=176	=176	=176
0D	-mo	0r	.	0d	-mo	0r	.
=177.	=177.	=177.	=177.	=177.	=177.	=177.	=177.
1G	fa-	0r	.	0r	.	0r	.
1F	.	.	.	.	.	.	.
=178	=178	=178	=178	=178	=178	=178	=178
1G	.	0r	.	1g	fa-	0r	.
1A	.	.	.	1f	.	.	.
=179.	=179.	=179.	=179.	=179.	=179.	=179.	=179.
1B-	.	0r	.	1g	.	0r	.
2c\	.	.	.	1a	.	.	.
[2A\	.	.	.	.	.	.	.
=180	=180	=180	=180	=180	=180	=180	=180
2A\]	.	0r	.	2f\	.	0r	.
2B-\	.	.	.	1g	.	.	.
1c	.	.	.	.	.	.	.
.	.	.	.	2e\	.	.	.
=181.	=181.	=181.	=181.	=181.	=181.	=181.	=181.
2G\	.	0r	.	2d\	.	0r	.
2B-\	.	.	.	1g	.	.	.
1A	-ctus	.	.	.	.	.	.
.	.	.	.	2f#i\	-ctus	.	.
=182	=182	=182	=182	=182	=182	=182	=182
0G	est.	[0G	Cru-	[0g	est.	0r	.
=183.	=183.	=183.	=183.	=183.	=183.	=183.	=183.
0r	.	0G_	.	0g]	.	0r	.
=184	=184	=184	=184	=184	=184	=184	=184
[0B-	Cru-	0G_	.	0r	.	[0dd	Cru-
=185.	=185.	=185.	=185.	=185.	=185.	=185.	=185.
1B-]	.	0G]	.	0d	Cru-	0dd]	.
1c	-ci-	.	.	.	.	.	.
=186	=186	=186	=186	=186	=186	=186	=186
[0d	-fi-	[0G	-ci-	0g	-ci-	1.b	-ci-
.	.	.	.	.	.	2cc\	.
=187.	=187.	=187.	=187.	=187.	=187.	=187.	=187.
0d]	.	0G]	.	0g	-fi-	0dd	-fi-
=188	=188	=188	=188	=188	=188	=188	=188
0c	-xus	[0c	-fi-	0g	-xus	1ee	-xus
.	.	.	.	.	.	1ee	e-
=189.	=189.	=189.	=189.	=189.	=189.	=189.	=189.
[0A	e-	0c_	.	1.a	e-	0ee	-ti-
.	.	.	.	2g\	-ti-	.	.
=190	=190	=190	=190	=190	=190	=190	=190
0A]	.	0c_	.	0e	-am	1.cc	-am
.	.	.	.	.	.	2b\	.
=191.	=191.	=191.	=191.	=191.	=191.	=191.	=191.
0F	-ti-	0c]	.	1f	.	0a	.
.	.	.	.	1f	pro	.	.
=192	=192	=192	=192	=192	=192	=192	=192
1G	-am	0B-	-xus	1d	no-	0g	.
1d	pro	.	.	1g	.	.	.
=193.	=193.	=193.	=193.	=193.	=193.	=193.	=193.
0c	no-	0A	e-	2a\	.	1r	.
.	.	.	.	1f#i	.	.	.
.	.	.	.	.	.	1a	pro
.	.	.	.	2e\	.	.	.
=194	=194	=194	=194	=194	=194	=194	=194
[0d	-bis...	[0G	-ti-	0g	-bis:	1b	.
.	.	.	.	.	.	1b	no-
=195.	=195.	=195.	=195.	=195.	=195.	=195.	=195.
0d]	.	0G]	.	1r	.	0g	-bis:
.	.	.	.	1G	sub	.	.
=196	=196	=196	=196	=196	=196	=196	=196
0r	.	[0G	-am	1.B-	Pon-	1d	sub
.	.	.	.	.	.	[1g	Pon-
.	.	.	.	2c\	.	.	.
=197.	=197.	=197.	=197.	=197.	=197.	=197.	=197.
0r	.	0G]	.	1d	.	2g/]	.
.	.	.	.	.	.	2a/	.
.	.	.	.	1e-i	.	[1b-i	.
=198	=198	=198	=198	=198	=198	=198	=198
1.G	pas-	0r	.	1d	-ti-	2b-\]	.
.	.	.	.	.	.	2cc\	.
.	.	.	.	1B-	-o	1dd	-ti-
2F\	.	.	.	.	.	.	.
=199.	=199.	=199.	=199.	=199.	=199.	=199.	=199.
1E	.	0r	.	1c	Pi-	1g	-o
1D	-sus	.	.	[1d	-la-	[1a	Pi-
=200	=200	=200	=200	=200	=200	=200	=200
1F	et-	0r	.	1d]	.	2a/]	.
.	.	.	.	.	.	2g/	.
1G	.	.	.	1d	-to	1g	.
=201.	=201.	=201.	=201.	=201.	=201.	=201.	=201.
0A	.	0r	.	0c	pas-	1e	-la-
.	.	.	.	.	.	1f	.
=202	=202	=202	=202	=202	=202	=202	=202
[0G	-se-	[0d	pa-	1B-	.	0g	-to
.	.	.	.	1d	.	.	.
=203.	=203.	=203.	=203.	=203.	=203.	=203.	=203.
0G]	.	0d_	.	1G	.	0b-	pa-
.	.	.	.	1g	.	.	.
=204	=204	=204	=204	=204	=204	=204	=204
0F	-pul-	0d_	.	1a	.	0a	-sus
.	.	.	.	1f	-sus	.	.
=205.	=205.	=205.	=205.	=205.	=205.	=205.	=205.
[0G	-tus	0d]	.	1d	et	1g	et
.	.	.	.	[1g	se-	[1dd	.
=206	=206	=206	=206	=206	=206	=206	=206
0G]	.	[0d	.	0g]	.	2dd\]	.
.	.	.	.	.	.	2cc\	.
.	.	.	.	.	.	1b-i	se-
=207.	=207.	=207.	=207.	=207.	=207.	=207.	=207.
0D	est.	0d]	.	1.f#i	-pul-	1.a	-pul-
.	.	.	.	2e\	-tus	2g/	-tus
=208	=208	=208	=208	=208	=208	=208	=208
1r	.	[0G	-sus...	0g	est.	[0g	est
[1d	Et	.	.	.	.	.	.
=209.	=209.	=209.	=209.	=209.	=209.	=209.	=209.
0d]	.	0G]	.	0r	.	0g]	.
=210	=210	=210	=210	=210	=210	=210	=210
0B-	re-	1r	.	0G	Et	1r	.
.	.	[1d	re-	.	.	[1g	Et
=211.	=211.	=211.	=211.	=211.	=211.	=211.	=211.
[0G	-sur-	0d]	.	1B-	re-	1g]	.
.	.	.	.	1B-	-sur-	[1g	re-
=212	=212	=212	=212	=212	=212	=212	=212
0G]	.	[0d	-sur-	0B-	-re-	1g]	.
.	.	.	.	.	.	1g	-sur-
=213.	=213.	=213.	=213.	=213.	=213.	=213.	=213.
0B-	-re-	0d]	.	0G	-xit	0g	-re-
=214	=214	=214	=214	=214	=214	=214	=214
0A	-xit	[0c	-re-	0e	.	0a	-xit
=215.	=215.	=215.	=215.	=215.	=215.	=215.	=215.
[0F	ter-	0c_	.	1r	.	1a	ter-
.	.	.	.	[1f	ter-	1a	-ti-
=216	=216	=216	=216	=216	=216	=216	=216
0F]	.	0c_	.	2f\]	.	1.a	-a
.	.	.	.	2g\	.	.	.
.	.	.	.	[1a	.	.	.
.	.	.	.	.	.	2b\	.
=217.	=217.	=217.	=217.	=217.	=217.	=217.	=217.
0A	-ti-	0c]	.	2a\]	.	0cc	di-
.	.	.	.	2e\	-ti-	.	.
.	.	.	.	1f#i	-a	.	.
=218	=218	=218	=218	=218	=218	=218	=218
0G	-a...	0B-	-xit	1g	di-	0dd	-e,
.	.	.	.	2d\	.	.	.
.	.	.	.	2g\	.	.	.
=219.	=219.	=219.	=219.	=219.	=219.	=219.	=219.
0r	.	1A	ter-	2f\	.	1cc	se-
.	.	.	.	2e\	.	.	.
.	.	[1G	-ti-	1g	.	1dd	-cun-
=220	=220	=220	=220	=220	=220	=220	=220
0r	.	1G]	.	1d	-e	1b	-dum
.	.	1F	-a	1r	.	[1a	scri-
=221.	=221.	=221.	=221.	=221.	=221.	=221.	=221.
0G	scri-	0B-	di-	1d	se-	2a/]	.
.	.	.	.	.	.	1g	-ptu-
.	.	.	.	1e-	-cun-	.	.
.	.	.	.	.	.	2f/	.
=222	=222	=222	=222	=222	=222	=222	=222
[0D	.	0A	-e,	1d	-dum	0a	-ras.
.	.	.	.	[1f	scri-	.	.
=223.	=223.	=223.	=223.	=223.	=223.	=223.	=223.
0D]	.	1.d	se-	2f\]	.	0r	.
.	.	.	.	2g\	.	.	.
.	.	.	.	1a	.	.	.
.	.	2c\	-cun-	.	.	.	.
=224	=224	=224	=224	=224	=224	=224	=224
0d	-ptu-	1B-	-dum	1d	-ptu-	0r	.
.	.	1G	scri-	[1g	.	.	.
=225.	=225.	=225.	=225.	=225.	=225.	=225.	=225.
0c	.	0A	-ptu-	2g\]	.	0r	.
.	.	.	.	2f#i\	.	.	.
.	.	.	.	2f#i\	.	.	.
.	.	.	.	2e\	.	.	.
=226	=226	=226	=226	=226	=226	=226	=226
3%4dV	-ras.	[0G	-ras.	3%4gV	-ras.	0r	.
[3%2B-Z	Et	.	.	[3%2dZ	Et	.	.
=227.	=227.	=227.	=227.	=227.	=227.	=227.	=227.
3%2B-]V	.	0G]	.	3%2d]V	.	0r	.
3%2G	.	.	.	3%4gZ	a-	.	.
3%2B-Z	a-	.	.	.	.	.	.
=228	=228	=228	=228	=228	=228	=228	=228
3%2AV	-scen-	0r	.	3%2fV	-scen-	0r	.
3%4GZ	.	.	.	3%2.e	.	.	.
.	.	.	.	3d\Z	.	.	.
=229.	=229.	=229.	=229.	=229.	=229.	=229.	=229.
3%2FV	-dit	0r	.	3%4dV	-dit	0r	.
3%4EZ	in	.	.	.	.	.	.
.	.	.	.	3%2c#iZ	in	.	.
=230	=230	=230	=230	=230	=230	=230	=230
3%4DV	ce-	[0d	Et	3%4dV	ce-	1a	Et
.	.	.	.	.	.	2g/	a-
[3%2GZ	.	.	.	3%2B-Z	.	.	.
.	.	.	.	.	.	[2b-i\	-scen-
=231.	=231.	=231.	=231.	=231.	=231.	=231.	=231.
3%2G]V	.	1d]	.	3%2GV	-lum,	2b-\]	.
.	.	.	.	.	.	2cc\	.
3%4FZ	-lum,	.	.	3%4AZ	.	.	.
.	.	[1d	a-	.	.	1a	-dit
=232	=232	=232	=232	=232	=232	=232	=232
0G	se-	0d]	.	3%2B-V	se-	3%2gV	in
.	.	.	.	3%2G	.	3f/	.
.	.	.	.	.	.	3e/	.
.	.	.	.	[3%2B-Z	-det	3f/	.
.	.	.	.	.	.	3e/Z	.
=233.	=233.	=233.	=233.	=233.	=233.	=233.	=233.
0D	-det	0d	-scen-	3%2B-]V	.	2g/	ce-
.	.	.	.	.	.	1f#i	.
.	.	.	.	3%4AZ	ad	.	.
.	.	.	.	.	.	2e/	.
=234	=234	=234	=234	=234	=234	=234	=234
[0d	ad	[0G	-dit...	1.B-	dex-	0g	-lum,
.	.	.	.	2c\	.	.	.
=235.	=235.	=235.	=235.	=235.	=235.	=235.	=235.
1d]	.	0G_	.	1d	.	1.b	se-
[1d	dex-	.	.	1G	-te-	.	.
.	.	.	.	.	.	2cc\	.
=236	=236	=236	=236	=236	=236	=236	=236
0d]	.	0G_	.	0g	-ram	1dd	.
.	.	.	.	.	.	1g	.
=237.	=237.	=237.	=237.	=237.	=237.	=237.	=237.
0d	-te-	0G]	.	1.g	pa-	0dd	-det
.	.	.	.	2f\	.	.	.
=238	=238	=238	=238	=238	=238	=238	=238
[0G	-ram	[0g	ad	2e\	.	1b	ad
.	.	.	.	2d\	.	.	.
.	.	.	.	[1d	-tris.	1b	dex-
=239.	=239.	=239.	=239.	=239.	=239.	=239.	=239.
0G]	.	0g]	.	0d]	.	1dd	-te-
.	.	.	.	.	.	1dd	-ram
=240	=240	=240	=240	=240	=240	=240	=240
1B-	pa-	0g	dex-	0r	.	1dd	pa-
1c	.	.	.	.	.	1ee	.
=241.	=241.	=241.	=241.	=241.	=241.	=241.	=241.
[0d	-tris...	[0f	.	0r	.	2dd\	.
.	.	.	.	.	.	1dd	.
.	.	.	.	.	.	4cc\	.
.	.	.	.	.	.	4b\	.
=242	=242	=242	=242	=242	=242	=242	=242
0d_	.	0f]	.	0r	.	1a	.
.	.	.	.	.	.	1a	-tris.
=243.	=243.	=243.	=243.	=243.	=243.	=243.	=243.
0d]	.	0f	-te-	0r	.	1r	.
.	.	.	.	.	.	1a	Et
=244	=244	=244	=244	=244	=244	=244	=244
0r	.	[0g	-ram	3%4GV	Et	1b	i-
.	.	.	.	.	.	1b	-te-
.	.	.	.	[3%2GZ	i-	.	.
=245.	=245.	=245.	=245.	=245.	=245.	=245.	=245.
0r	.	0g]	.	3%2G]V	.	1g	-rum
.	.	.	.	3%4GZ	-te-	.	.
.	.	.	.	.	.	1dd	ven-
=246	=246	=246	=246	=246	=246	=246	=246
[0G	i-	0g	pa-	3%4dV	-rum	1dd	-tu-
.	.	.	.	.	.	1b	-rus
.	.	.	.	3%2dZ	ven-	.	.
=247.	=247.	=247.	=247.	=247.	=247.	=247.	=247.
0G]	.	[0d	-tris.	3%4B-V	-tu-	1g	est
.	.	.	.	.	.	1g	cum
.	.	.	.	3%2B-Z	-rus	.	.
=248	=248	=248	=248	=248	=248	=248	=248
0G	-te-	0d]	.	1G	est	1b	glo-
.	.	.	.	[1d	cum	1b	-ri-
=249.	=249.	=249.	=249.	=249.	=249.	=249.	=249.
[0F	-rum	0r	.	2d\]	.	1.a	-a,
.	.	.	.	2c\	.	.	.
.	.	.	.	[1A	glo-	.	.
.	.	.	.	.	.	[2cc\	iu-
=250	=250	=250	=250	=250	=250	=250	=250
0F]	.	0r	.	1A]	.	1cc]	.
.	.	.	.	1c	-ri-	[1cc	-di-
=251.	=251.	=251.	=251.	=251.	=251.	=251.	=251.
0F	ven-	0r	.	2d\	-a,	2cc\]	.
.	.	.	.	2c\	.	1.a	.
.	.	.	.	1f	iu-	.	.
=252	=252	=252	=252	=252	=252	=252	=252
[0G	-tu-	[0g	vi-	2e\	-di-	1g	-ca-
.	.	.	.	1d	-ca-	.	.
.	.	.	.	.	.	1dd	.
.	.	.	.	[2B-\	-re	.	.
=253.	=253.	=253.	=253.	=253.	=253.	=253.	=253.
0G]	.	1g]	.	2B-\]	.	1dd	-re
.	.	.	.	2c\	.	.	.
.	.	[1g	-vos	1d	vi-	[1b	vi-
=254	=254	=254	=254	=254	=254	=254	=254
0G	-rus	0g]	.	2e\	-vos	1b]	.
.	.	.	.	2.d\	.	.	.
.	.	.	.	.	.	2g/	-vos
.	.	.	.	4c\	.	.	.
.	.	.	.	2B-\	.	2g/	et
=255.	=255.	=255.	=255.	=255.	=255.	=255.	=255.
[0D	est	[0f	.	1A	et	1a	mor-
.	.	.	.	[1d	mor-	1a	-tu-
=256	=256	=256	=256	=256	=256	=256	=256
0D_	.	1f]	.	2d\]	.	0d	-os:
.	.	.	.	2c\	.	.	.
.	.	[1f	et	1B-	-tu-	.	.
=257.	=257.	=257.	=257.	=257.	=257.	=257.	=257.
0D]	.	0f]	.	0A	-os:	0r	.
=258	=258	=258	=258	=258	=258	=258	=258
0r	.	[0g	mor-	1.G	cu-	1.b	cu-
.	.	.	.	2A/	.	2cc\	.
=259.	=259.	=259.	=259.	=259.	=259.	=259.	=259.
0r	.	1g]	.	1B-	-ius	1dd	-ius
.	.	[1g	-tu-	[1c	re-	[1ee	re-
=260	=260	=260	=260	=260	=260	=260	=260
0r	.	1g]	.	1c]	.	2ee\]	.
.	.	.	.	.	.	2dd\	.
.	.	1f	.	1d	.	[1dd	.
=261.	=261.	=261.	=261.	=261.	=261.	=261.	=261.
0r	.	0e	.	0A	-gni	1dd]	.
.	.	.	.	.	.	1cc#i	.
=262	=262	=262	=262	=262	=262	=262	=262
[0G	cu-	[0d	-os...	1r	.	0dd	-gni
.	.	.	.	1B-	non	.	.
=263.	=263.	=263.	=263.	=263.	=263.	=263.	=263.
1G]	.	0d]	.	1B-	e-	0g	non-
[1G	-ius	.	.	1G	-rit	.	.
=264	=264	=264	=264	=264	=264	=264	=264
0G]	.	0r	.	0g	fi-	0b-i	.
=265.	=265.	=265.	=265.	=265.	=265.	=265.	=265.
[0F	re-	0r	.	1c	.	1.a	-e-
.	.	.	.	1d	.	.	.
.	.	.	.	.	.	2b-i\	.
=266	=266	=266	=266	=266	=266	=266	=266
1F]	.	0r	.	1c	.	1cc	.
[1F	-gni	.	.	[1f	.	1dd	-rit
=267.	=267.	=267.	=267.	=267.	=267.	=267.	=267.
0F]	.	0r	.	1f]	.	1cc	fi-
.	.	.	.	1f	.	1a	.
=268	=268	=268	=268	=268	=268	=268	=268
[0G	non	0r	.	1e	.	1g	.
.	.	.	.	[1d	.	1b-i	.
=269.	=269.	=269.	=269.	=269.	=269.	=269.	=269.
1G]	.	0r	.	2d\]	.	2a/	.
.	.	.	.	2c\	.	2.g/	.
[1G	e-	.	.	1d	.	.	.
.	.	.	.	.	.	4f/	.
.	.	.	.	.	.	2e/	.
=270	=270	=270	=270	=270	=270	=270	=270
1G]	.	[0g	non	1B-	.	0d	.
1F	-rit	.	.	1B-	-nis.	.	.
=271.	=271.	=271.	=271.	=271.	=271.	=271.	=271.
0E	fi-	0g]	.	0c	.	0e	.
=272	=272	=272	=272	=272	=272	=272	=272
0D	-nis.	[0a	e-	1r	.	0f	-nis.
.	.	.	.	[1d	Et	.	.
=273.	=273.	=273.	=273.	=273.	=273.	=273.	=273.
1r	.	0a]	.	1d]	.	0d	.
1F	Et	.	.	1A	in	.	.
=274	=274	=274	=274	=274	=274	=274	=274
1G	.	0g	-rit	1B-	spi-	0r	.
1E	in	.	.	1c	-ri-	.	.
=275.	=275.	=275.	=275.	=275.	=275.	=275.	=275.
0D	spi-	0f	.	0d	-tum	0r	.
=276	=276	=276	=276	=276	=276	=276	=276
[0A	-ri-	[0e	fi-	[0c	san-	0r	.
=277.	=277.	=277.	=277.	=277.	=277.	=277.	=277.
0A]	.	0e]	.	0c]	.	0a	Et
=278	=278	=278	=278	=278	=278	=278	=278
[0D	-tum	[0d	-nis...	1A	-ctum,	1.f	in
.	.	.	.	1r	.	.	.
.	.	.	.	.	.	2g/	.
=279.	=279.	=279.	=279.	=279.	=279.	=279.	=279.
0D_	.	0d_	.	1.F	do-	1a	spi-
.	.	.	.	.	.	1b-i	-ri-
.	.	.	.	2G/	.	.	.
=280	=280	=280	=280	=280	=280	=280	=280
0D_	.	0d_	.	1A	.	0a	-tum
.	.	.	.	1F	-mi-	.	.
=281.	=281.	=281.	=281.	=281.	=281.	=281.	=281.
0D]	.	0d]	.	1.A	-num	1f	san-
.	.	.	.	.	.	1f	-ctum
.	.	.	.	2B-\	.	.	.
=282	=282	=282	=282	=282	=282	=282	=282
1r	.	0r	.	1.G	.	1g	do-
[1G	san-	.	.	.	.	1g	-mi-
.	.	.	.	[2B-\	et	.	.
=283.	=283.	=283.	=283.	=283.	=283.	=283.	=283.
0G]	.	0r	.	2B-\]	.	1d	-num,
.	.	.	.	2c\	.	.	.
.	.	.	.	1d	vi-	1r	.
=284	=284	=284	=284	=284	=284	=284	=284
1F	-ctum	0r	.	1A	-vi-	1a	et
1D	.	.	.	1f	-fi-	1a	vi-
=285.	=285.	=285.	=285.	=285.	=285.	=285.	=285.
1E	do-	0r	.	1e	-can-	1g	-vi-
1G	.	.	.	[1d	-tem:	1b-i	-fi-
=286	=286	=286	=286	=286	=286	=286	=286
0F	-mi-	0r	.	0d]	.	1.a	-can-
.	.	.	.	.	.	2g/	.
=287.	=287.	=287.	=287.	=287.	=287.	=287.	=287.
[0G	-num...	0r	.	1B-	qui	0g	-tem:
.	.	.	.	1G	ex	.	.
=288	=288	=288	=288	=288	=288	=288	=288
0G]	.	0r	.	1.g	pa-	1r	.
.	.	.	.	.	.	[1dd	qui
.	.	.	.	2f\	.	.	.
=289.	=289.	=289.	=289.	=289.	=289.	=289.	=289.
0r	.	[0G	fi-	0d	-tre	1dd]	.
.	.	.	.	.	.	[1dd	ex
=290	=290	=290	=290	=290	=290	=290	=290
1B-	fi-	0G]	.	1r	.	1dd]	.
1c	-li-	.	.	[1g	fi-	1cc	pa-
=291.	=291.	=291.	=291.	=291.	=291.	=291.	=291.
0d	-o-	0G	-li-	0g]	.	0b-i	-tre
=292	=292	=292	=292	=292	=292	=292	=292
[0A	-que	[0c	-o-	1.a	-li-	1a	fi-
.	.	.	.	.	.	[1cc	-li-
.	.	.	.	4g\	.	.	.
.	.	.	.	4f\	.	.	.
=293.	=293.	=293.	=293.	=293.	=293.	=293.	=293.
0A]	.	0c]	.	0e	-o-	1cc]	.
.	.	.	.	.	.	[1cc	-o-
=294	=294	=294	=294	=294	=294	=294	=294
0F	pro-	0c	-que	0f	-que	2cc\]	.
.	.	.	.	.	.	2b\	.
.	.	.	.	.	.	1a	-que
=295.	=295.	=295.	=295.	=295.	=295.	=295.	=295.
0G	-ce-	0B-	pro-	[0d	pro-	0g	pro-
=296	=296	=296	=296	=296	=296	=296	=296
[0D	-dit.	[0A	-ce-	0d_	.	0a	-ce-
=297.	=297.	=297.	=297.	=297.	=297.	=297.	=297.
0D]	.	0A]	.	0d]	.	1.f#i	.
.	.	.	.	.	.	2e/	.
=298	=298	=298	=298	=298	=298	=298	=298
0r	.	[0G	-dit.	0d	-ce-	[0g	-dit.
=299.	=299.	=299.	=299.	=299.	=299.	=299.	=299.
0r	.	0G]	.	0B-	-dit.	1g]	.
.	.	.	.	.	.	2f/	.
.	.	.	.	.	.	2e/	.
=300	=300	=300	=300	=300	=300	=300	=300
0r	.	0r	.	1r	.	0d	.
.	.	.	.	1G	Qui	.	.
=301.	=301.	=301.	=301.	=301.	=301.	=301.	=301.
0r	.	0r	.	1F	cum	1r	.
.	.	.	.	1G	pa-	1d	Qui
=302	=302	=302	=302	=302	=302	=302	=302
0r	.	0r	.	1A	-tre	1c	cum
.	.	.	.	1B-	et	1d	-pa-
=303.	=303.	=303.	=303.	=303.	=303.	=303.	=303.
0r	.	0r	.	1c	fi-	1e	-tre
.	.	.	.	1A	-li-	1f	et
=304	=304	=304	=304	=304	=304	=304	=304
0r	.	0r	.	0G	-o	1g	fi-
.	.	.	.	.	.	1e	-li-
=305.	=305.	=305.	=305.	=305.	=305.	=305.	=305.
0r	.	0r	.	1r	.	0d	-o
.	.	.	.	1d	si-	.	.
=306	=306	=306	=306	=306	=306	=306	=306
0r	.	0r	.	1e	-mul	1r	.
.	.	.	.	1f	ad-	1a	si-
=307.	=307.	=307.	=307.	=307.	=307.	=307.	=307.
0r	.	0r	.	1g	-o-	1b	-mul
.	.	.	.	1e	-ra-	1cc	ad-
=308	=308	=308	=308	=308	=308	=308	=308
0r	.	0r	.	0d	-tur,	1dd	-o-
.	.	.	.	.	.	1b	-ra-
=309.	=309.	=309.	=309.	=309.	=309.	=309.	=309.
0r	.	0r	.	1r	.	0a	-tur,
.	.	.	.	1a	et	.	.
=310	=310	=310	=310	=310	=310	=310	=310
0r	.	0r	.	1g	con-	1r	.
.	.	.	.	1e	-glo-	1ee	et
=311.	=311.	=311.	=311.	=311.	=311.	=311.	=311.
0r	.	0r	.	1f	-ri-	1dd	con-
.	.	.	.	1d	-fi-	1b	-glo-
=312	=312	=312	=312	=312	=312	=312	=312
0r	.	0r	.	0c	-ca-	1cc	-ri-
.	.	.	.	.	.	1a	-fi-
=313.	=313.	=313.	=313.	=313.	=313.	=313.	=313.
0r	.	0r	.	1B-	.	1g	-ca-
.	.	.	.	1c	.	[1a	.
=314	=314	=314	=314	=314	=314	=314	=314
0r	.	0r	.	1A	.	2a/]	.
.	.	.	.	.	.	2g/	.
.	.	.	.	[1d	.	1f	.
=315.	=315.	=315.	=315.	=315.	=315.	=315.	=315.
0r	.	0r	.	1d]	.	1.e	.
.	.	.	.	1c#i	.	.	.
.	.	.	.	.	.	2d/	.
=316	=316	=316	=316	=316	=316	=316	=316
0r	.	0r	.	1.d	-tur:	0d	-tur:
.	.	.	.	4c\	.	.	.
.	.	.	.	4B-\	.	.	.
=317.	=317.	=317.	=317.	=317.	=317.	=317.	=317.
0r	.	0r	.	0A	.	0c	.
=318	=318	=318	=318	=318	=318	=318	=318
*M2/1	*	*	*	*	*	*M2/1	*
*met(3)	*	*	*	*	*	*met(3)	*
3%4.D	qui	0r	.	0r	.	3%2.d	qui
.	.	.	.	.	.	3e/	.
.	.	.	.	.	.	3%2f	lo-
=319.	=319.	=319.	=319.	=319.	=319.	=319.	=319.
3%4.C	lo-	0r	.	0r	.	3%2g	-cu-
.	.	.	.	.	.	3%4e	-tus
=320	=320	=320	=320	=320	=320	=320	=320
3%4D	-cu-	0r	.	0r	.	3%2r	.
.	.	.	.	.	.	3%4d	est
3%2E	.	.	.	.	.	.	.
=321.	=321.	=321.	=321.	=321.	=321.	=321.	=321.
3%4F	.	0r	.	0r	.	3%2c	.
.	.	.	.	.	.	3%4d	.
3%2G	-tus	.	.	.	.	.	.
=322	=322	=322	=322	=322	=322	=322	=322
3%2E	est	0r	.	0r	.	3%2e	per
3%4D	.	.	.	.	.	3%2f	.
.	.	.	.	.	.	[3%2d	.
=323.	=323.	=323.	=323.	=323.	=323.	=323.	=323.
3%2G	per	0r	.	0r	.	3%2d]	.
3%2F	.	.	.	.	.	3%2a	pro-
3%2G	.	.	.	.	.	3%2b	.
=324	=324	=324	=324	=324	=324	=324	=324
3%4A	pro-	0r	.	0r	.	3%2cc	-phe-
.	.	.	.	.	.	3%4a	.
3%2c	.	.	.	.	.	.	.
=325.	=325.	=325.	=325.	=325.	=325.	=325.	=325.
3%2d	-phe-	0r	.	0r	.	3%2f	.
3%2A	.	.	.	.	.	3%2e	.
3%2B-	.	.	.	.	.	3%2g	.
=326	=326	=326	=326	=326	=326	=326	=326
3%4A	.	0r	.	0r	.	3%2f	.
.	.	.	.	.	.	3%4a	.
3%2F	.	.	.	.	.	.	.
=327.	=327.	=327.	=327.	=327.	=327.	=327.	=327.
3%2G	.	0r	.	0r	.	3%2b-i	.
3%2A	.	.	.	.	.	3%2a	.
3%2B-	.	.	.	.	.	3g/	.
.	.	.	.	.	.	3f/	.
=328	=328	=328	=328	=328	=328	=328	=328
3%2c	.	0r	.	0r	.	3%2e	.
3%4d	.	.	.	.	.	3%2d	.
.	.	.	.	.	.	[3%2f	.
=329.	=329.	=329.	=329.	=329.	=329.	=329.	=329.
3%2D	.	0r	.	0r	.	3%2f]	.
3%2C	.	.	.	.	.	3%2e	.
3%2D	.	.	.	.	.	3%2f	.
=330	=330	=330	=330	=330	=330	=330	=330
3%2E	.	0r	.	0r	.	3%2g	.
3%2F	.	.	.	.	.	3%2a	.
3%2G	.	.	.	.	.	3%2d	.
=331.	=331.	=331.	=331.	=331.	=331.	=331.	=331.
3%4E	.	0r	.	0r	.	3%2e	.
.	.	.	.	.	.	3%4c	.
[3%2A	.	.	.	.	.	.	.
=332	=332	=332	=332	=332	=332	=332	=332
3%2A]	.	0r	.	0r	.	3%2f	.
3%4G	.	.	.	.	.	3g/	.
.	.	.	.	.	.	3f/	.
.	.	.	.	.	.	3e/	.
.	.	.	.	.	.	3d/	.
=333.	=333.	=333.	=333.	=333.	=333.	=333.	=333.
3%2F	.	0r	.	0r	.	3%4d	.
3%4E	.	.	.	.	.	.	.
.	.	.	.	.	.	3%2c#i	.
=334	=334	=334	=334	=334	=334	=334	=334
[3%4.D	-tas.	0r	.	0r	.	[3%4.d	-tas.
=335.	=335.	=335.	=335.	=335.	=335.	=335.	=335.
3%4.D_	.	0r	.	0r	.	3%4.d]	.
=336	=336	=336	=336	=336	=336	=336	=336
3%4.D_	.	[0d	Et	0f	Et	3%4.r	.
=337.	=337.	=337.	=337.	=337.	=337.	=337.	=337.
3%4.D]	.	0d]	.	1g	u-	3%4.r	.
.	.	.	.	[1a	-nam	.	.
=338	=338	=338	=338	=338	=338	=338	=338
*	*	*	*	*	*	*M2/1	*
*	*	*	*	*	*	*met(C)	*
3%4.r	.	[0d	u-	1a]	.	0dd	Et
.	.	.	.	[1f	san-	.	.
=339.	=339.	=339.	=339.	=339.	=339.	=339.	=339.
3%4.r	.	0d]	.	2f\]	.	1dd	u-
.	.	.	.	2g\	.	.	.
.	.	.	.	2f#i\	.	1dd	-nam
.	.	.	.	2e\	.	.	.
=340	=340	=340	=340	=340	=340	=340	=340
*M2/1	*	*	*	*	*	*	*
*met(C)	*	*	*	*	*	*	*
0d	Et	[0G	-nam	[0g	-ctam	1b	san-
.	.	.	.	.	.	1b	-ctam
=341.	=341.	=341.	=341.	=341.	=341.	=341.	=341.
1B-	u-	0G_	.	0g]	.	1g	.
1c	.	.	.	.	.	1g	ca-
=342	=342	=342	=342	=342	=342	=342	=342
[0d	-nam	0G_	.	1r	.	1b	-tho-
.	.	.	.	1G	ca-	2b\	-li-
.	.	.	.	.	.	2cc\	.
=343.	=343.	=343.	=343.	=343.	=343.	=343.	=343.
0d]	.	0G]	.	1.B-	-tho-	[0dd	-cam
.	.	.	.	2c\	.	.	.
=344	=344	=344	=344	=344	=344	=344	=344
[0G	san-	0r	.	0d	-li-	0dd]	.
=345.	=345.	=345.	=345.	=345.	=345.	=345.	=345.
0G]	.	0d	san-	0g	-cam	0r	.
=346	=346	=346	=346	=346	=346	=346	=346
0F	-ctam	[0d	-ctam	0r	.	0a	et
=347.	=347.	=347.	=347.	=347.	=347.	=347.	=347.
0G	ca-	0d]	.	0g	et	1b	a-
.	.	.	.	.	.	1b	-po-
=348	=348	=348	=348	=348	=348	=348	=348
0A	-tho-	[0c	ca-	1e	a-	1a	-sto-
.	.	.	.	1e	-po-	[1cc	.
=349.	=349.	=349.	=349.	=349.	=349.	=349.	=349.
0F	-li-	0c]	.	1f	-sto-	2cc\]	.
.	.	.	.	.	.	2b\	.
.	.	.	.	1f	-li-	1a	-li-
=350	=350	=350	=350	=350	=350	=350	=350
[0G	-cam...	[0B-	-tho-	0d	-cam	1g	-cam
.	.	.	.	.	.	1dd	ec-
=351.	=351.	=351.	=351.	=351.	=351.	=351.	=351.
0G]	.	0B-]	.	0e-	ec-	2cc\	-cle-
.	.	.	.	.	.	2.b-i\	.
.	.	.	.	.	.	4a/	.
.	.	.	.	.	.	2g/	.
=352	=352	=352	=352	=352	=352	=352	=352
[0D	.	[0A	-li-	0d	-cle-	3%4f#iV	-si-
.	.	.	.	.	.	3%2gZ	.
=353.	=353.	=353.	=353.	=353.	=353.	=353.	=353.
0D]	.	0A]	.	0d	-si-	3%4f#iV	.
.	.	.	.	.	.	3%2eZ	.
=354	=354	=354	=354	=354	=354	=354	=354
1r	.	0G	-cam	1B-	-am.	0g	-am.
[1d	Con-	.	.	1B-	Con-	.	.
=355.	=355.	=355.	=355.	=355.	=355.	=355.	=355.
1d]	.	1F	et	1A	-fi-	1r	.
1B-	-fi-	[1G	a-	1G	-te-	1g	Con-
=356	=356	=356	=356	=356	=356	=356	=356
0G	-te-	1G]	.	0d	-or	1g	-fi-
.	.	1B-	-po-	.	.	1g	-te-
=357.	=357.	=357.	=357.	=357.	=357.	=357.	=357.
1F	-or	1A	-sto-	1r	.	1a	-or
1G	u-	1B-	.	1d	u-	2g/	u-
.	.	.	.	.	.	2f/	.
=358	=358	=358	=358	=358	=358	=358	=358
0A	-num	0c	-li-	1c	-num	1.e	-num
.	.	.	.	[1A	.	.	.
.	.	.	.	.	.	2d/	.
=359.	=359.	=359.	=359.	=359.	=359.	=359.	=359.
0D	bap-	0d	-cam	2A/]	.	1d	.
.	.	.	.	2B-\	bap-	.	.
.	.	.	.	2A/	.	1f	bap-
.	.	.	.	2B-\	.	.	.
=360	=360	=360	=360	=360	=360	=360	=360
1E	-tis-	1G	ec-	1c	-tis-	1e	-tis-
1D	.	1A	.	1d	.	1f	.
=361.	=361.	=361.	=361.	=361.	=361.	=361.	=361.
1E	.	1G	-cle-	2c\	-ma,	1g	.
.	.	.	.	2B-\	.	.	.
[1F	.	[1c	.	1A	.	[1a	.
=362	=362	=362	=362	=362	=362	=362	=362
1F]	.	1c]	.	1r	.	2a/]	.
.	.	.	.	.	.	2g/	.
1G	.	1B-	.	[1d	bap-	[1g	.
=363.	=363.	=363.	=363.	=363.	=363.	=363.	=363.
0D	.	0A	-si-	1d]	.	2g/]	.
.	.	.	.	.	.	2f#i/	.
.	.	.	.	1d	-tis-	2f#i/	.
.	.	.	.	.	.	2e/	.
=364	=364	=364	=364	=364	=364	=364	=364
[0G	-ma	0G	-am.	0d	-ma	[0g	-ma
=365.	=365.	=365.	=365.	=365.	=365.	=365.	=365.
0G]	.	0r	.	1.B-	in	0g]	.
.	.	.	.	2c\	re-	.	.
=366	=366	=366	=366	=366	=366	=366	=366
!	!	!LO:TX:Z=14:t=Scindite pausas longarum, cetera per medium	!	!	!	!	!
!	!	!LO:TX:Z=-4:t=Skip long rests; reduce note values by half [resolved in this ed.]	!	!	!	!	!
[0d	in	[0G	Con-	1d	-mis-	0r	.
.	.	.	.	[1g	.	.	.
=367.	=367.	=367.	=367.	=367.	=367.	=367.	=367.
1d]	.	0G]	.	0g]	.	3%4ddV	in
[1B-	re-	.	.	.	.	.	.
.	.	.	.	.	.	[3%2ddZ	re-
=368	=368	=368	=368	=368	=368	=368	=368
0B-]	.	0G	-fi-	0g	-si-	3%2dd]V	.
.	.	.	.	.	.	3%4ddZ	-mis-
=369.	=369.	=369.	=369.	=369.	=369.	=369.	=369.
0A	-mis-	[0c/	-te-	0e	.	1.cc	-si-
.	.	.	.	.	.	2b\	.
=370	=370	=370	=370	=370	=370	=370	=370
0F	-si-	0c]/	.	1f	-o-	1a	-o-
.	.	.	.	1f	-nem	1a	-nem
=371.	=371.	=371.	=371.	=371.	=371.	=371.	=371.
1G	-o-	1B-	-or	1d	pec-	1g	pec-
1A	.	1A	.	1c#	-ca-	1f#i	-ca-
=372	=372	=372	=372	=372	=372	=372	=372
1.B-	-nem	0G	u-	0d	-to-	1g	-to-
.	.	.	.	.	.	2f/	.
2c\	.	.	.	.	.	2e/	.
=373.	=373.	=373.	=373.	=373.	=373.	=373.	=373.
0d	.	0G	-num	0B-	-rum.	1d	-rum.
.	.	.	.	.	.	[1g	Et
=374	=374	=374	=374	=374	=374	=374	=374
0G	pec-	[0d	bap-	1r	.	1g]	.
.	.	.	.	1G	Et	1b-i	ex-
=375.	=375.	=375.	=375.	=375.	=375.	=375.	=375.
1F	-ca-	0d]	.	1A	ex-	1a	-spec-
[1G	-to-	.	.	[1B-	-spec-	[1g	.
=376	=376	=376	=376	=376	=376	=376	=376
1G]	.	0d	-tis-	1B-]	.	1g]	.
1D	.	.	.	1A	.	1f	.
=377.	=377.	=377.	=377.	=377.	=377.	=377.	=377.
0E	.	0G	-ma...	0c	.	0g	.
=378	=378	=378	=378	=378	=378	=378	=378
[0D	-rum	2r	.	1d	.	1.a	.
.	.	1.d	re-	.	.	.	.
.	.	.	.	[1A	.	.	.
.	.	.	.	.	.	2f/	.
=379.	=379.	=379.	=379.	=379.	=379.	=379.	=379.
0D]	.	0d	-sur-	1A]	.	0f	-to
.	.	.	.	1A	.	.	.
=380	=380	=380	=380	=380	=380	=380	=380
[0F	.	[0c	-rec-	1A	-to	1r	.
.	.	.	.	1r	.	1cc	re-
=381.	=381.	=381.	=381.	=381.	=381.	=381.	=381.
0F]	.	0c]	.	1.f	re-	2b-\	.
.	.	.	.	.	.	1a	.
.	.	.	.	2e\	-sur-	2g/	-sur-
=382	=382	=382	=382	=382	=382	=382	=382
0r	.	1B-	-ti-	1d	-rec-	1g	-rec-
.	.	2A/	-o-	2c\	-ti-	2f/	-ti-
.	.	[2G/	.	2d\	.	2g/	.
=383.	=383.	=383.	=383.	=383.	=383.	=383.	=383.
0r	.	2G/]	.	2e\	-o-	2b-i\	-o-
.	.	2F/	.	2f\	.	1a	-nem
.	.	1B-	.	1d	-nem	.	.
.	.	.	.	.	.	2g/	mor-
=384	=384	=384	=384	=384	=384	=384	=384
0r	.	1A	-nem	2.c\	mor-	2a/	.
.	.	.	.	.	.	2.f/	.
.	.	.	.	4d\	.	.	.
.	.	2.d\	mor-	2B-\	.	.	.
.	.	.	.	.	.	4g/	.
.	.	.	.	2A/	-tu-	2a/	-tu-
.	.	4c\	.	.	.	.	.
=385.	=385.	=385.	=385.	=385.	=385.	=385.	=385.
0r	.	2B-\	.	2G/	-o-	2d/	-o-
.	.	2G/	-tu-	1d	.	2g/	.
.	.	1A	-o-	.	.	2.f#i/	.
.	.	.	.	2c\	.	.	.
.	.	.	.	.	.	4e/	.
=386	=386	=386	=386	=386	=386	=386	=386
0r	.	0G	-rum,	0d	-rum,	0g	-rum.
=387.	=387.	=387.	=387.	=387.	=387.	=387.	=387.
0G	re-	1.d	mor-	1g	mor-	0b-	.
.	.	.	.	1g	-tu-	.	.
.	.	[2d\	-tu-	.	.	.	.
=388	=388	=388	=388	=388	=388	=388	=388
0D	-sur-	1d]	.	2f#i\	-o-	0a	.
.	.	.	.	1f#i	.	.	.
.	.	1d	-o-	.	.	.	.
.	.	.	.	2e\	.	.	.
=389.	=389.	=389.	=389.	=389.	=389.	=389.	=389.
1.d	-rec-	[0G	-rum	0g	.	0g	.
[2d\	-ti-	.	.	.	.	.	.
=390	=390	=390	=390	=390	=390	=390	=390
1d]	.	0G]	.	0g	-rum.	0r	.
1d	-o-	.	.	.	.	.	.
=391.	=391.	=391.	=391.	=391.	=391.	=391.	=391.
1.G	-nem	0g	Et	0r	.	0r	.
[2B-\	mor-	.	.	.	.	.	.
=392	=392	=392	=392	=392	=392	=392	=392
2B-\]	.	1g	vi-	0r	.	0r	.
2c\	-tu-	.	.	.	.	.	.
2A\	-o-	[1f	-tam	.	.	.	.
[2d\	.	.	.	.	.	.	.
=393.	=393.	=393.	=393.	=393.	=393.	=393.	=393.
2d\]	.	1f]	.	0r	.	0r	.
2c\	.	.	.	.	.	.	.
1A	.	1f	ven-	.	.	.	.
=394	=394	=394	=394	=394	=394	=394	=394
[0G	-rum.	0g	.	1d	Et	[0b	Et
.	.	.	.	1e	.	.	.
=395.	=395.	=395.	=395.	=395.	=395.	=395.	=395.
0G_	.	1g	-tu-	1d	vi-	0b]	.
.	.	[1d	-ri...	[1g	.	.	.
=396	=396	=396	=396	=396	=396	=396	=396
0G_	.	1d]	.	2g\]	.	0b	vi-
.	.	.	.	2f\	.	.	.
.	.	1r	.	2e\	.	.	.
.	.	.	.	2d\	.	.	.
=397.	=397.	=397.	=397.	=397.	=397.	=397.	=397.
0G]	.	1.g	et	1d	-tam,	0dd	-tam,
.	.	.	.	1B-	.	.	.
.	.	[2g\	vi-	.	.	.	.
=398	=398	=398	=398	=398	=398	=398	=398
0r	.	1g]	.	2G/	et	1r	.
.	.	.	.	2B-\	.	.	.
.	.	[1f	-tam	2A/	.	[1a	et
.	.	.	.	[2d\	vi-	.	.
=399.	=399.	=399.	=399.	=399.	=399.	=399.	=399.
0D	Et	2f\]	.	2d\]	.	2a/]	.
.	.	1.f	ven-	2B-\	.	2g/	.
.	.	.	.	1A	.	1f	vi-
=400	=400	=400	=400	=400	=400	=400	=400
0E	vi-	1.g	.	0G	-tam,	0e	-tam,
.	.	[2g\	-tu-	.	.	.	.
=401.	=401.	=401.	=401.	=401.	=401.	=401.	=401.
0C	.	2g\]	.	0c	et	1r	.
.	.	2f\	.	.	.	.	.
.	.	1e	.	.	.	1g	et
=402	=402	=402	=402	=402	=402	=402	=402
0D	.	0d	-ri,	1A	vi-	2f/	vi-
.	.	.	.	.	.	1a	.
.	.	.	.	1f	.	.	.
.	.	.	.	.	.	2b-i\	.
=403.	=403.	=403.	=403.	=403.	=403.	=403.	=403.
0B-	.	0g	et	2e\	.	1g	.
.	.	.	.	1d	.	.	.
.	.	.	.	.	.	1dd	.
.	.	.	.	2c\	.	.	.
=404	=404	=404	=404	=404	=404	=404	=404
1.A	.	0a	vi-	0e	-tam,	2cc\	.
.	.	.	.	.	.	2dd\	.
.	.	.	.	.	.	[1ee	.
2B-\	.	.	.	.	.	.	.
=405.	=405.	=405.	=405.	=405.	=405.	=405.	=405.
1c	.	1g	.	1r	.	2ee\]	.
.	.	.	.	.	.	2dd\	.
1d	.	1f	.	[1a	vi-	[1dd	.
=406	=406	=406	=406	=406	=406	=406	=406
0A	.	0e	.	0a]	.	2dd\]	.
.	.	.	.	.	.	2cc#i\	.
.	.	.	.	.	.	2cc#i\	.
.	.	.	.	.	.	2b\	.
=407.	=407.	=407.	=407.	=407.	=407.	=407.	=407.
[0D	-tam	[0d	-tam	0a	-tam	0dd	-tam
=408	=408	=408	=408	=408	=408	=408	=408
0D]	.	0d]	.	0f	ven-	0r	.
=409.	=409.	=409.	=409.	=409.	=409.	=409.	=409.
0G	ven-	1r	.	0g	-tu-	0b-	ven-
.	.	[1G	ven-	.	.	.	.
=410	=410	=410	=410	=410	=410	=410	=410
0B-	-tu-	1G]	.	0d	-ri	0g	-tu-
.	.	1G	-tu-	.	.	.	.
=411.	=411.	=411.	=411.	=411.	=411.	=411.	=411.
0A	-ri	0c	-ri	1r	.	1a	-ri
.	.	.	.	[1e	se-	[1a	se-
=412	=412	=412	=412	=412	=412	=412	=412
1r	.	1c	se-	1e]	.	1a]	.
1d	se-	1B-	.	1d	.	1g	.
=413.	=413.	=413.	=413.	=413.	=413.	=413.	=413.
0c	.	0A	.	1e	.	1a	.
.	.	.	.	1f	.	1cc	.
=414	=414	=414	=414	=414	=414	=414	=414
0d	.	0G	.	0g	.	1b	.
.	.	.	.	.	.	[1dd	.
=415.	=415.	=415.	=415.	=415.	=415.	=415.	=415.
0G	-cu-	0d	.	0g	.	2dd\]	.
.	.	.	.	.	.	2cc\	.
.	.	.	.	.	.	1b	.
=416	=416	=416	=416	=416	=416	=416	=416
0D	-li.	0d	-cu-	0f#i	-cu-	1.a	-cu-
.	.	.	.	.	.	2g/	.
=417.	=417.	=417.	=417.	=417.	=417.	=417.	=417.
1r	.	[0G	-li.	0g	-li.	0g	-li.
[1d	A-	.	.	.	.	.	.
=418	=418	=418	=418	=418	=418	=418	=418
1d]	.	0G]	.	0r	.	1r	.
1B-	.	.	.	.	.	[1dd	A-
=419.	=419.	=419.	=419.	=419.	=419.	=419.	=419.
0G	.	1r	.	0g	A-	1dd]	.
.	.	1d	A-	.	.	[1b	.
=420	=420	=420	=420	=420	=420	=420	=420
1r	.	0d	.	1f	.	2b\]	.
.	.	.	.	.	.	2a/	.
1G	.	.	.	1g	.	1b	.
=421.	=421.	=421.	=421.	=421.	=421.	=421.	=421.
1A	.	0c	.	1e	.	1cc	.
1F	.	.	.	1f	.	[1a	.
=422	=422	=422	=422	=422	=422	=422	=422
0G	-men,	0B-	.	0d	.	2a/]	.
.	.	.	.	.	.	2g/	.
.	.	.	.	.	.	1g	.
=423.	=423.	=423.	=423.	=423.	=423.	=423.	=423.
0D	.	0A	.	1r	.	1a	.
.	.	.	.	[1d	.	1f	.
=424	=424	=424	=424	=424	=424	=424	=424
0r	.	1G	.	1d]	.	2g/	.
.	.	.	.	.	.	2b-i\	.
.	.	2F/	.	1d	.	2a/	.
.	.	[2G/	.	.	.	2g/	.
=425.	=425.	=425.	=425.	=425.	=425.	=425.	=425.
0r	.	2G/]	.	2B-\	.	1dd	.
.	.	2B-\	.	2G/	.	.	.
.	.	2A/	.	2r	.	2cc\	.
.	.	2B-\	.	2G/	.	2dd\	.
=426	=426	=426	=426	=426	=426	=426	=426
0r	.	1c	.	2A/	.	2cc\	.
.	.	.	.	1F	.	2a/	.
.	.	1d	.	.	.	2r	.
.	.	.	.	2G/	.	[2b-i\	.
=427.	=427.	=427.	=427.	=427.	=427.	=427.	=427.
0r	.	2G/	.	2B-\	.	2b-\]	.
.	.	2A/	.	2c\	.	2a/	.
.	.	2G/	.	2d\	.	2b-i\	.
.	.	[2c\	.	[2e\	.	2g/	.
=428	=428	=428	=428	=428	=428	=428	=428
0r	.	2c\]	.	4e\]	.	2a/	.
.	.	.	.	4c\	.	.	.
.	.	2B-\	.	2d\	.	2g/	.
.	.	1A	.	2.c\	.	2e/	.
.	.	.	.	.	.	2f#i/	.
.	.	.	.	4B-\	.	.	.
=429.	=429.	=429.	=429.	=429.	=429.	=429.	=429.
0r	.	1G	-men,	0d	-men,	1g	-men,
.	.	1r	.	.	.	1r	.
=430	=430	=430	=430	=430	=430	=430	=430
!	!	!LO:TX:Z=8:t=[Return to C mensuration]	!	!	!	!	!
0G	a-	0d	a-	0r	.	0b-i	a-
=431.	=431.	=431.	=431.	=431.	=431.	=431.	=431.
0F	.	0A	.	0r	.	0a	.
=432	=432	=432	=432	=432	=432	=432	=432
0G	.	0B-	.	[0d	a-	0g	.
=433.	=433.	=433.	=433.	=433.	=433.	=433.	=433.
0D	.	0A	.	0d]	.	0a	.
=434	=434	=434	=434	=434	=434	=434	=434
0E-	.	0c	.	0G	.	0g	.
=435.	=435.	=435.	=435.	=435.	=435.	=435.	=435.
0D	.	0d	.	1A	.	0f	-men,
.	.	.	.	1B-	.	.	.
=436	=436	=436	=436	=436	=436	=436	=436
0C	.	0e	.	0c	.	1r	.
.	.	.	.	.	.	1g	a-
=437.	=437.	=437.	=437.	=437.	=437.	=437.	=437.
[0D	-men,	1.d	.	0A	.	1.f	.
.	.	2e\	.	.	.	2g/	.
=438	=438	=438	=438	=438	=438	=438	=438
1D]	.	0f	.	[0d	.	0a	.
1r	.	.	.	.	.	.	.
=439.	=439.	=439.	=439.	=439.	=439.	=439.	=439.
0G	a-	0g	.	0d]	.	0b-i	.
=440	=440	=440	=440	=440	=440	=440	=440
1.D	.	1f	.	0d	.	1.a	.
.	.	[1d	.	.	.	.	.
2E\	.	.	.	.	.	2g/	.
=441.	=441.	=441.	=441.	=441.	=441.	=441.	=441.
2F\	.	1d]	.	[0A	.	1f	.
2G\	.	.	.	.	.	.	.
1A	.	1c	.	.	.	1e	.
=442	=442	=442	=442	=442	=442	=442	=442
0D	.	0d	.	0A]	.	1f	.
.	.	.	.	.	.	1d	.
=443.	=443.	=443.	=443.	=443.	=443.	=443.	=443.
0E	.	1Bni	.	0G	.	1r	.
.	.	1c	.	.	.	1g	.
=444	=444	=444	=444	=444	=444	=444	=444
0D	.	0d	.	1.A	.	0f	.
.	.	.	.	2B-\	.	.	.
=445.	=445.	=445.	=445.	=445.	=445.	=445.	=445.
1E	.	1G	.	1c	.	1g	.
1D	.	1F	.	[1d	.	1a	.
=446	=446	=446	=446	=446	=446	=446	=446
1r	.	1G	.	1d]	.	1b-i	.
1G	.	1B-	.	1e-	.	[1g	.
=447.	=447.	=447.	=447.	=447.	=447.	=447.	=447.
0D	.	0A	.	0d	.	1g]	.
.	.	.	.	.	.	1f#i	.
=448	=448	=448	=448	=448	=448	=448	=448
0r	.	0G	.	0B-	.	1g	.
.	.	.	.	.	.	[1dd	.
=449.	=449.	=449.	=449.	=449.	=449.	=449.	=449.
1.D	.	0d	.	1r	.	2dd\]	.
.	.	.	.	.	.	2cc\	.
.	.	.	.	[1f	.	1b-i	.
2E\	.	.	.	.	.	.	.
=450	=450	=450	=450	=450	=450	=450	=450
1F	.	1c	.	1f]	.	2.a/	.
.	.	.	.	.	.	4g/	.
1G	.	1B-	.	[1d	.	[1g	.
=451.	=451.	=451.	=451.	=451.	=451.	=451.	=451.
0D	.	0A	.	1d]	.	2g/]	.
.	.	.	.	.	.	2f#i/	.
.	.	.	.	1d	.	2f#i/	.
.	.	.	.	.	.	2e/	.
=452	=452	=452	=452	=452	=452	=452	=452
0Gl	-men.	0Gl	-men.	0dl	-men.	0gl	-men.
==	==	==	==	==	==	==	==
*-	*-	*-	*-	*-	*-	*-	*-
!!!RDF**kern: l=long note in original notation
!!!RDF**kern: i=editorial accidental
!!!RDF**kern: V=start of tuplet marker
!!!RDF**kern: Z=end of tuplet marker
!!!ENC:	Planchart/Rodin
!!!END:	2013/12/08/
!!!EED:	Jesse Rodin
!!!EEV:	2013/12/09/
!!!ONB:	Translated from SCORE and edited on 2013/12/09/ by Craig Sapp
!!muse2ps: T^@{OPR}^u^@{ONM}{. }@{OTL}^C^@{COM}^i2I150v85,85,85,130c175
